; generated by SuperSlicer 2.3.57 on 2022-08-28 at 19:36:20 UTC

; 

; external perimeters extrusion width = 0.42mm
; perimeters extrusion width = 0.46mm
; infill extrusion width = 0.44mm
; solid infill extrusion width = 0.46mm
; top infill extrusion width = 0.44mm
; first layer extrusion width = 0.56mm

; object:{"name":"[a]_belt_tensioner_a_x2","id":"[a]_belt_tensioner_a_x2.stl id:0 copy 0","object_center":[115.000038,99.500664,0.000000],"boundingbox_center":[115.000038,99.500664,4.400005],"boundingbox_size":[35.700012,19.998672,8.800011]}
; object:{"name":"[a]_belt_tensioner_a_x2","id":"[a]_belt_tensioner_a_x2.stl id:0 copy 1","object_center":[115.000038,125.499437,0.000000],"boundingbox_center":[115.000038,125.499437,4.400005],"boundingbox_size":[35.700012,19.998672,8.800011]}
; Total objects to print: 2
M486 T2
; plater:{"center":[115.000038,112.500051,0.000000],"boundingbox_center":[115.000038,112.500051,4.400005],"boundingbox_size":[35.700012,45.997445,8.800011]}

;TYPE:Custom
G90 ; use absolute coordinates
M83 ; extruder relative mode
M140 S90 ; set final bed temp
M104 S150 ; set temporary nozzle temp to prevent oozing during homing and auto bed leveling
G4 S10 ; allow partial nozzle warmup
G28 ; home all axis
G29; ABL
G1 Z50 F240
G1 X2 Y10 F3000
M104 S245 ; set final nozzle temp
M190 S90 ; wait for bed temp to stabilize
M109 S245 ; wait for nozzle temp to stabilize
G1 Z0.28 F240
G92 E0
G1 Y140 E10 F1500 ; prime the nozzle
G1 X2.3 F5000
G92 E0
G1 Y10 E10 F1200 ; prime the nozzle
G92 E0
M107
G21 ; set units to millimeters
G90 ; use absolute coordinates
M82 ; use absolute distances for extrusion
G92 E0
; Filament gcode
M107
;LAYER_CHANGE
;Z:0.2
;HEIGHT:0.2
;BEFORE_LAYER_CHANGE
;0.2


G1 E-6 F3600
G1 Z0.2 F9000
;AFTER_LAYER_CHANGE
;0.2
G92 E0
M204 P500
G1 X47.744 Y47.624
G1 X95.488 Y95.247
G1 E6 F2400
;TYPE:Skirt
;WIDTH:0.48
G1 F1200
G1 X100.824 Y89.98 E6.2725
G1 X102.481 Y88.647 E6.34979
G1 X104.351 Y87.59 E6.42784
G1 X106.224 Y86.894 E6.50045
G1 X108.01 Y86.512 E6.56683
G1 X110.056 Y86.384 E6.64134
G1 X111.775 Y86.524 E6.70404
G1 X113.715 Y86.964 E6.77633
G1 X115.645 Y87.732 E6.85181
G1 X117.131 Y88.588 E6.91414
G1 X134.499 Y102.347 E7.71941
G1 X135.14 Y103.024 E7.75331
G1 X135.578 Y103.752 E7.78418
G1 X135.864 Y104.579 E7.81597
G1 X135.968 Y105.457 E7.84813
G1 X135.963 Y134.685 E8.91035
G1 X135.777 Y135.734 E8.94909
G1 X135.265 Y136.801 E8.9921
G1 X134.547 Y137.611 E9.03141
G1 X133.598 Y138.227 E9.07252
G1 X132.762 Y138.514 E9.10466
G1 X131.866 Y138.617 E9.13745
G1 X107.119 Y138.617 E10.03684
G1 X106.023 Y138.568 E10.07672
G1 X104.569 Y138.36 E10.13009
G1 X103.032 Y137.954 E10.18787
G1 X101.917 Y137.528 E10.23124
G1 X100.54 Y136.83 E10.28735
G1 X99.186 Y135.923 E10.34657
G1 X98.022 Y134.92 E10.40242
G1 X97.005 Y133.815 E10.45702
G1 X96.081 Y132.539 E10.51428
G1 X95.287 Y131.097 E10.57409
G1 X94.734 Y129.732 E10.62762
G1 X94.414 Y128.644 E10.66884
G1 X94.136 Y127.146 E10.72421
G1 X94.041 Y125.989 E10.76639
G1 X94.032 Y99.469 E11.73022
G1 X94.103 Y98.099 E11.78008
G1 X94.325 Y97.158 E11.81521
G1 X94.844 Y96.071 E11.85898
G1 X95.451 Y95.294 E11.89482
; INIT printing object [a]_belt_tensioner_a_x2.stl id:0 copy 0
G92 E0
G1 E-4.2 F3600
;WIPE_START
G1 F7200
G1 X98.011 Y92.763 E-5.91
;WIPE_END
G1 E-6 F3600
; printing object [a]_belt_tensioner_a_x2.stl id:0 copy 0
M486 S0
G1 X100.273 Y96.723 F9000
G1 X105.094 Y98.151
G1 E0 F2400
;TYPE:Internal perimeter
;WIDTH:0.564
G1 F1200
G1 X105.059 Y98.272 E0.00547
G1 X104.981 Y98.631 E0.0214
G1 X104.931 Y98.988 E0.037
G1 X104.911 Y99.253 E0.04853
G1 X104.906 Y99.386 E0.05429
G1 X104.909 Y99.72 E0.06876
G1 X104.931 Y100.012 E0.08147
G1 X104.981 Y100.369 E0.09707
G1 X105.059 Y100.728 E0.113
G1 X105.161 Y101.073 E0.12858
G1 X105.205 Y101.193 E0.13413
G1 X105.294 Y101.427 E0.14499
G1 X105.449 Y101.758 E0.16081
G1 X105.629 Y102.079 E0.17673
G1 X105.831 Y102.383 E0.19257
G1 X105.983 Y102.581 E0.20337
G1 X106.062 Y102.681 E0.2089
G1 X106.304 Y102.949 E0.22453
G1 X106.57 Y103.202 E0.24047
G1 X106.854 Y103.436 E0.2564
G1 X107.148 Y103.643 E0.27197
G1 X107.398 Y103.795 E0.28467
G1 X107.697 Y103.952 E0.2993
G1 X107.817 Y104.008 E0.30502
G1 X108.06 Y104.111 E0.31643
G1 X108.4 Y104.229 E0.33207
G1 X108.756 Y104.324 E0.34801
G1 X109.112 Y104.391 E0.36369
G1 X109.238 Y104.406 E0.3692
G1 X109.485 Y104.433 E0.37995
G1 X109.85 Y104.447 E0.3958
G1 X110.217 Y104.433 E0.41173
G1 X110.583 Y104.392 E0.42767
G1 X110.94 Y104.325 E0.44341
G1 X111.188 Y104.26 E0.4545
G1 X111.312 Y104.225 E0.46011
G1 X111.647 Y104.108 E0.47547
G1 X111.984 Y103.962 E0.4914
G1 X112.302 Y103.795 E0.50693
G1 X112.552 Y103.643 E0.51964
G1 X112.846 Y103.436 E0.5352
G1 X113.119 Y103.212 E0.5505
G1 X113.214 Y103.123 E0.55614
G1 X113.399 Y102.945 E0.56728
G1 X113.643 Y102.676 E0.58301
G1 X113.868 Y102.385 E0.59894
G1 X114.071 Y102.079 E0.61487
G1 X114.25 Y101.759 E0.63073
G1 X114.355 Y101.536 E0.64143
G1 X114.408 Y101.421 E0.64693
G1 X114.537 Y101.081 E0.66267
G1 X114.642 Y100.728 E0.6786
G1 X114.718 Y100.375 E0.69426
G1 X114.756 Y100.116 E0.70562
G1 X114.772 Y99.985 E0.71132
G1 X114.794 Y99.638 E0.7264
G1 X114.791 Y99.28 E0.7419
G1 X114.769 Y98.988 E0.7546
G1 X114.719 Y98.631 E0.7702
G1 X114.642 Y98.272 E0.78614
G1 X114.539 Y97.927 E0.80172
G1 X114.495 Y97.807 E0.80726
G1 X114.406 Y97.573 E0.81812
G1 X114.251 Y97.242 E0.83394
G1 X114.071 Y96.921 E0.84987
G1 X113.869 Y96.617 E0.8657
G1 X113.717 Y96.419 E0.87651
G1 X113.638 Y96.319 E0.88204
G1 X113.396 Y96.051 E0.89767
G1 X113.13 Y95.798 E0.9136
G1 X112.846 Y95.564 E0.92954
G1 X112.552 Y95.357 E0.9451
G1 X112.302 Y95.205 E0.95781
G1 X111.984 Y95.038 E0.97334
G1 X111.663 Y94.898 E0.98853
G1 X111.54 Y94.853 E0.9942
G1 X111.294 Y94.769 E1.00545
G1 X110.944 Y94.676 E1.02114
G1 X110.583 Y94.608 E1.03708
G1 X110.217 Y94.567 E1.05301
G1 X109.851 Y94.553 E1.06891
G1 X109.607 Y94.562 E1.07949
G1 X109.481 Y94.567 E1.08495
G1 X109.117 Y94.608 E1.1008
G1 X108.756 Y94.676 E1.11674
G1 X108.406 Y94.769 E1.13243
G1 X108.16 Y94.853 E1.14368
G1 X108.037 Y94.898 E1.14935
G1 X107.716 Y95.038 E1.16454
G1 X107.398 Y95.205 E1.18007
G1 X107.148 Y95.357 E1.19278
G1 X106.854 Y95.564 E1.20834
G1 X106.57 Y95.798 E1.22427
G1 X106.312 Y96.044 E1.23974
G1 X106.224 Y96.139 E1.24532
G1 X106.055 Y96.327 E1.25629
G1 X105.832 Y96.615 E1.27208
G1 X105.629 Y96.921 E1.28801
G1 X105.449 Y97.242 E1.30393
G1 X105.294 Y97.573 E1.31975
G1 X105.205 Y97.807 E1.33062
G1 X105.161 Y97.927 E1.33616
G1 X105.111 Y98.093 E1.34367
G1 X105.361 Y98.167 F9000
G1 X105.611 Y98.241
G1 F1200
G1 X105.564 Y98.401 E1.3509
G1 X105.494 Y98.723 E1.36515
G1 X105.449 Y99.043 E1.37917
G1 X105.432 Y99.282 E1.38956
G1 X105.427 Y99.394 E1.39439
G1 X105.43 Y99.698 E1.40759
G1 X105.449 Y99.957 E1.41884
G1 X105.494 Y100.277 E1.43285
G1 X105.564 Y100.599 E1.44711
G1 X105.655 Y100.909 E1.4611
G1 X105.693 Y101.01 E1.46578
G1 X105.775 Y101.224 E1.4757
G1 X105.913 Y101.52 E1.48987
G1 X106.074 Y101.807 E1.50411
G1 X106.255 Y102.08 E1.5183
G1 X106.394 Y102.26 E1.52817
G1 X106.461 Y102.344 E1.53283
G1 X106.678 Y102.585 E1.54687
G1 X106.916 Y102.812 E1.56113
G1 X107.17 Y103.021 E1.57538
G1 X107.434 Y103.207 E1.58937
G1 X107.656 Y103.342 E1.60061
G1 X107.927 Y103.485 E1.61392
G1 X108.028 Y103.531 E1.61873
G1 X108.247 Y103.624 E1.62904
G1 X108.553 Y103.731 E1.64308
G1 X108.871 Y103.815 E1.65734
G1 X109.19 Y103.876 E1.67141
G1 X109.297 Y103.888 E1.67606
G1 X109.523 Y103.913 E1.6859
G1 X109.85 Y103.925 E1.70009
G1 X110.179 Y103.913 E1.71434
G1 X110.506 Y103.876 E1.72859
G1 X110.826 Y103.816 E1.74271
G1 X111.051 Y103.757 E1.75279
G1 X111.156 Y103.728 E1.75752
G1 X111.457 Y103.623 E1.77135
G1 X111.759 Y103.492 E1.78561
G1 X112.045 Y103.342 E1.79957
G1 X112.266 Y103.207 E1.81081
G1 X112.53 Y103.021 E1.8248
G1 X112.776 Y102.819 E1.8386
G1 X112.857 Y102.745 E1.84334
G1 X113.025 Y102.582 E1.85346
G1 X113.243 Y102.341 E1.86756
G1 X113.445 Y102.081 E1.88182
G1 X113.626 Y101.807 E1.89607
G1 X113.787 Y101.521 E1.91027
G1 X113.883 Y101.316 E1.92007
G1 X113.928 Y101.219 E1.92471
G1 X114.043 Y100.914 E1.93882
G1 X114.136 Y100.599 E1.95308
G1 X114.205 Y100.282 E1.96713
G1 X114.24 Y100.047 E1.97741
G1 X114.253 Y99.938 E1.98219
G1 X114.273 Y99.623 E1.99584
G1 X114.27 Y99.302 E2.00977
G1 X114.251 Y99.043 E2.02102
G1 X114.206 Y98.723 E2.03503
G1 X114.136 Y98.401 E2.04929
G1 X114.045 Y98.091 E2.06328
G1 X114.007 Y97.99 E2.06796
G1 X113.926 Y97.776 E2.07788
G1 X113.787 Y97.48 E2.09205
G1 X113.626 Y97.193 E2.10629
G1 X113.445 Y96.92 E2.12047
G1 X113.306 Y96.74 E2.13035
G1 X113.239 Y96.655 E2.13502
G1 X113.022 Y96.415 E2.14905
G1 X112.784 Y96.188 E2.1633
G1 X112.53 Y95.979 E2.17756
G1 X112.266 Y95.793 E2.19155
G1 X112.045 Y95.658 E2.20279
G1 X111.759 Y95.508 E2.21675
G1 X111.469 Y95.382 E2.23047
G1 X111.366 Y95.344 E2.23524
G1 X111.143 Y95.268 E2.24543
G1 X110.829 Y95.185 E2.25951
G1 X110.506 Y95.124 E2.27377
G1 X110.179 Y95.087 E2.28802
G1 X109.85 Y95.075 E2.30225
G1 X109.626 Y95.083 E2.31197
G1 X109.52 Y95.087 E2.31658
G1 X109.195 Y95.124 E2.33077
G1 X108.871 Y95.185 E2.34503
G1 X108.557 Y95.268 E2.35911
G1 X108.334 Y95.344 E2.3693
G1 X108.231 Y95.382 E2.37407
G1 X107.941 Y95.508 E2.38779
G1 X107.655 Y95.658 E2.40175
G1 X107.434 Y95.793 E2.41299
G1 X107.17 Y95.979 E2.42698
G1 X106.916 Y96.188 E2.44123
G1 X106.683 Y96.41 E2.45515
G1 X106.61 Y96.489 E2.45985
G1 X106.456 Y96.661 E2.46985
G1 X106.256 Y96.919 E2.484
G1 X106.074 Y97.193 E2.49825
G1 X105.913 Y97.48 E2.51249
G1 X105.775 Y97.776 E2.52666
G1 X105.693 Y97.99 E2.53658
G1 X105.655 Y98.091 E2.54126
G1 X105.628 Y98.184 E2.54543
G1 X105.878 Y98.258 F9000
G1 X106.128 Y98.332
G1 F1200
G1 X106.069 Y98.53 E2.55441
G1 X106.007 Y98.814 E2.56699
G1 X105.967 Y99.098 E2.57942
G1 X105.952 Y99.311 E2.58868
G1 X105.948 Y99.401 E2.59258
G1 X105.951 Y99.677 E2.60451
G1 X105.967 Y99.902 E2.61429
G1 X106.007 Y100.186 E2.62672
G1 X106.069 Y100.47 E2.6393
G1 X106.15 Y100.744 E2.65171
G1 X106.181 Y100.827 E2.65551
G1 X106.255 Y101.02 E2.66449
G1 X106.377 Y101.282 E2.67702
G1 X106.519 Y101.535 E2.68958
G1 X106.679 Y101.776 E2.70211
G1 X106.805 Y101.94 E2.71106
G1 X106.859 Y102.008 E2.71485
G1 X107.051 Y102.221 E2.7273
G1 X107.261 Y102.422 E2.73987
G1 X107.486 Y102.606 E2.75244
G1 X107.72 Y102.771 E2.76486
G1 X107.913 Y102.888 E2.77464
G1 X108.158 Y103.017 E2.78664
G1 X108.239 Y103.055 E2.79052
G1 X108.435 Y103.138 E2.79974
G1 X108.706 Y103.232 E2.81218
G1 X108.987 Y103.307 E2.82475
G1 X109.269 Y103.36 E2.83722
G1 X109.356 Y103.37 E2.841
G1 X109.561 Y103.393 E2.84993
G1 X109.85 Y103.404 E2.86247
G1 X110.14 Y103.393 E2.87503
G1 X110.428 Y103.361 E2.88761
G1 X110.712 Y103.307 E2.9001
G1 X110.914 Y103.254 E2.90917
G1 X110.999 Y103.23 E2.91301
G1 X111.268 Y103.137 E2.92533
G1 X111.534 Y103.021 E2.9379
G1 X111.787 Y102.888 E2.95029
G1 X111.98 Y102.771 E2.96008
G1 X112.214 Y102.606 E2.97249
G1 X112.434 Y102.426 E2.98478
G1 X112.499 Y102.366 E2.98863
G1 X112.65 Y102.22 E2.99772
G1 X112.843 Y102.006 E3.01021
G1 X113.021 Y101.777 E3.02278
G1 X113.181 Y101.535 E3.03535
G1 X113.323 Y101.283 E3.04789
G1 X113.41 Y101.096 E3.0568
G1 X113.447 Y101.017 E3.06057
G1 X113.549 Y100.748 E3.07306
G1 X113.631 Y100.47 E3.08564
G1 X113.692 Y100.189 E3.09809
G1 X113.723 Y99.979 E3.10728
G1 X113.734 Y99.89 E3.11115
G1 X113.752 Y99.609 E3.12335
G1 X113.749 Y99.323 E3.13573
G1 X113.733 Y99.098 E3.14552
G1 X113.693 Y98.814 E3.15794
G1 X113.631 Y98.53 E3.17052
G1 X113.55 Y98.256 E3.18293
G1 X113.52 Y98.173 E3.18673
G1 X113.446 Y97.98 E3.19571
G1 X113.323 Y97.718 E3.20824
G1 X113.181 Y97.465 E3.2208
G1 X113.022 Y97.224 E3.23333
G1 X112.895 Y97.06 E3.24228
G1 X112.841 Y96.992 E3.24608
G1 X112.649 Y96.779 E3.25852
G1 X112.439 Y96.578 E3.27109
G1 X112.214 Y96.394 E3.28366
G1 X111.98 Y96.229 E3.29608
G1 X111.787 Y96.112 E3.30586
G1 X111.534 Y95.979 E3.31825
G1 X111.275 Y95.866 E3.3305
G1 X111.191 Y95.835 E3.33436
G1 X110.992 Y95.767 E3.3435
G1 X110.713 Y95.693 E3.35597
G1 X110.428 Y95.639 E3.36855
G1 X110.14 Y95.607 E3.38112
G1 X109.85 Y95.596 E3.39367
G1 X109.646 Y95.604 E3.40253
G1 X109.559 Y95.607 E3.40629
G1 X109.272 Y95.639 E3.41883
G1 X108.987 Y95.693 E3.4314
G1 X108.709 Y95.767 E3.44387
G1 X108.509 Y95.835 E3.45301
G1 X108.425 Y95.866 E3.45687
G1 X108.166 Y95.979 E3.46912
G1 X107.913 Y96.112 E3.48152
G1 X107.72 Y96.229 E3.4913
G1 X107.486 Y96.394 E3.50371
G1 X107.261 Y96.578 E3.51628
G1 X107.055 Y96.775 E3.52865
G1 X106.995 Y96.84 E3.53247
G1 X106.856 Y96.995 E3.54149
G1 X106.679 Y97.223 E3.554
G1 X106.519 Y97.465 E3.56657
G1 X106.377 Y97.718 E3.57914
G1 X106.255 Y97.98 E3.59166
G1 X106.181 Y98.173 E3.60064
G1 X106.15 Y98.256 E3.60444
G1 X106.145 Y98.274 E3.60527
G1 X106.395 Y98.347 F9000
G1 X106.645 Y98.42
;TYPE:External perimeter
G1 F1200
G1 X106.574 Y98.66 E3.61611
G1 X106.521 Y98.906 E3.627
G1 X106.486 Y99.153 E3.63784
G1 X106.472 Y99.341 E3.64598
G1 X106.47 Y99.409 E3.64894
G1 X106.472 Y99.655 E3.65961
G1 X106.486 Y99.847 E3.66793
G1 X106.521 Y100.094 E3.67877
G1 X106.574 Y100.34 E3.68966
G1 X106.645 Y100.58 E3.7005
G1 X106.668 Y100.643 E3.70343
G1 X106.735 Y100.817 E3.71146
G1 X106.841 Y101.044 E3.72234
G1 X106.964 Y101.263 E3.73322
G1 X107.102 Y101.472 E3.7441
G1 X107.216 Y101.619 E3.75213
G1 X107.257 Y101.672 E3.75505
G1 X107.425 Y101.858 E3.7659
G1 X107.607 Y102.031 E3.77679
G1 X107.801 Y102.191 E3.78768
G1 X108.006 Y102.335 E3.79852
G1 X108.17 Y102.435 E3.80684
G1 X108.388 Y102.55 E3.81753
G1 X108.45 Y102.578 E3.82048
G1 X108.623 Y102.651 E3.82861
G1 X108.859 Y102.734 E3.83945
G1 X109.102 Y102.798 E3.85035
G1 X109.348 Y102.845 E3.8612
G1 X109.415 Y102.853 E3.86412
G1 X109.599 Y102.873 E3.87214
G1 X109.85 Y102.882 E3.88302
G1 X110.101 Y102.873 E3.8939
G1 X110.351 Y102.845 E3.9048
G1 X110.597 Y102.799 E3.91566
G1 X110.778 Y102.751 E3.92373
G1 X110.843 Y102.733 E3.92667
G1 X111.078 Y102.651 E3.93747
G1 X111.309 Y102.551 E3.94837
G1 X111.53 Y102.435 E3.9592
G1 X111.694 Y102.335 E3.96752
G1 X111.899 Y102.191 E3.97835
G1 X112.091 Y102.033 E3.98915
G1 X112.141 Y101.987 E3.99209
G1 X112.275 Y101.857 E4.00017
G1 X112.443 Y101.671 E4.01103
G1 X112.597 Y101.473 E4.02192
G1 X112.736 Y101.263 E4.03281
G1 X112.859 Y101.044 E4.04368
G1 X112.938 Y100.877 E4.0517
G1 X112.966 Y100.816 E4.05462
G1 X113.055 Y100.581 E4.06548
G1 X113.126 Y100.34 E4.07637
G1 X113.179 Y100.095 E4.08722
G1 X113.206 Y99.91 E4.09534
G1 X113.214 Y99.843 E4.09829
G1 X113.231 Y99.595 E4.10905
G1 X113.228 Y99.345 E4.11987
G1 X113.214 Y99.153 E4.12819
G1 X113.179 Y98.906 E4.13903
G1 X113.126 Y98.66 E4.14993
G1 X113.055 Y98.42 E4.16076
G1 X113.032 Y98.357 E4.16369
G1 X112.965 Y98.183 E4.17173
G1 X112.859 Y97.956 E4.18261
G1 X112.736 Y97.737 E4.19349
G1 X112.598 Y97.528 E4.20436
G1 X112.484 Y97.381 E4.21239
G1 X112.443 Y97.328 E4.21532
G1 X112.275 Y97.142 E4.22616
G1 X112.093 Y96.969 E4.23706
G1 X111.899 Y96.809 E4.24795
G1 X111.694 Y96.665 E4.25878
G1 X111.53 Y96.565 E4.2671
G1 X111.309 Y96.449 E4.27793
G1 X111.081 Y96.35 E4.28871
G1 X111.017 Y96.326 E4.29166
G1 X110.84 Y96.266 E4.29975
G1 X110.598 Y96.202 E4.31061
G1 X110.351 Y96.155 E4.3215
G1 X110.101 Y96.127 E4.33239
G1 X109.85 Y96.118 E4.34328
G1 X109.666 Y96.124 E4.35127
G1 X109.599 Y96.127 E4.35418
G1 X109.349 Y96.155 E4.36506
G1 X109.102 Y96.202 E4.37595
G1 X108.86 Y96.266 E4.38681
G1 X108.683 Y96.326 E4.39491
G1 X108.619 Y96.35 E4.39785
G1 X108.391 Y96.449 E4.40863
G1 X108.17 Y96.565 E4.41946
G1 X108.006 Y96.665 E4.42778
G1 X107.801 Y96.809 E4.43862
G1 X107.607 Y96.969 E4.44951
G1 X107.426 Y97.141 E4.46033
G1 X107.38 Y97.191 E4.46326
G1 X107.256 Y97.329 E4.47132
G1 X107.103 Y97.527 E4.48219
G1 X106.964 Y97.737 E4.49308
G1 X106.841 Y97.956 E4.50396
G1 X106.735 Y98.183 E4.51483
G1 X106.666 Y98.364 E4.5232
G1 X106.401 Y98.473 F9000
G92 E0
G1 E-4.2 F3600
;WIPE_START
G1 F7200
G1 X106.574 Y98.66 E-4.34726
G1 X106.521 Y98.906 E-4.46667
G1 X106.486 Y99.153 E-4.58552
G1 X106.472 Y99.341 E-4.67475
G1 X106.47 Y99.409 E-4.7072
G1 X106.472 Y99.655 E-4.82415
G1 X106.486 Y99.847 E-4.91537
G1 X106.521 Y100.094 E-5.03421
G1 X106.574 Y100.34 E-5.15363
G1 X106.645 Y100.58 E-5.27243
G1 X106.668 Y100.643 E-5.30453
G1 X106.735 Y100.817 E-5.39265
