; generated by SuperSlicer 2.3.57 on 2022-08-31 at 22:28:47 UTC

; 

; external perimeters extrusion width = 0.42mm
; perimeters extrusion width = 0.46mm
; infill extrusion width = 0.44mm
; solid infill extrusion width = 0.46mm
; top infill extrusion width = 0.44mm
; first layer extrusion width = 0.56mm

; object:{"name":"[a]_belt_tensioner_a_x2","id":"[a]_belt_tensioner_a_x2.stl id:0 copy 0","object_center":[115.000038,99.500664,0.000000],"boundingbox_center":[115.000038,99.500664,4.400005],"boundingbox_size":[35.700012,19.998672,8.800011]}
; object:{"name":"[a]_belt_tensioner_a_x2","id":"[a]_belt_tensioner_a_x2.stl id:1 copy 0","object_center":[115.000038,125.499437,0.000000],"boundingbox_center":[115.000038,125.499437,4.400005],"boundingbox_size":[35.700012,19.998672,8.800011]}
; Total objects to print: 2
M486 T2
; plater:{"center":[115.000038,112.500051,0.000000],"boundingbox_center":[115.000038,112.500051,4.400005],"boundingbox_size":[35.700012,45.997445,8.800011]}

;TYPE:Custom
G90 ; use absolute coordinates
M83 ; extruder relative mode
M140 S90 ; set final bed temp
M104 S150 ; set temporary nozzle temp to prevent oozing during homing and auto bed leveling
G4 S10 ; allow partial nozzle warmup
G28 ; home all axis
G29; ABL
G1 Z50 F240
G1 X2 Y10 F3000
M104 S245 ; set final nozzle temp
M190 S90 ; wait for bed temp to stabilize
M109 S245 ; wait for nozzle temp to stabilize
G1 Z0.28 F240
G92 E0
G1 Y140 E10 F1500 ; prime the nozzle
G1 X2.3 F5000
G92 E0
G1 Y10 E10 F1200 ; prime the nozzle
G92 E0
M107
G21 ; set units to millimeters
G90 ; use absolute coordinates
M82 ; use absolute distances for extrusion
G92 E0
; Filament gcode
M107
;LAYER_CHANGE
;Z:0.2
;HEIGHT:0.2
;BEFORE_LAYER_CHANGE
;0.2


G1 E-6 F3600
G1 Z0.2 F9000
;AFTER_LAYER_CHANGE
;0.2
G92 E0
M204 P500
G1 X46.043 Y45.998
G1 X92.087 Y91.996
G1 E6 F2400
;TYPE:Skirt
;WIDTH:0.48
G1 F1200
G1 X97.627 Y86.534 E6.28273
G1 X98.732 Y85.574 E6.33594
G1 X99.884 Y84.728 E6.38789
G1 X101.889 Y83.558 E6.47223
G1 X103.18 Y82.976 E6.52371
G1 X104.54 Y82.491 E6.57621
G1 X105.98 Y82.106 E6.63035
G1 X107.374 Y81.854 E6.68183
G1 X109.683 Y81.682 E6.76601
G1 X111.081 Y81.724 E6.81684
G1 X112.533 Y81.884 E6.86992
G1 X114.913 Y82.415 E6.95856
G1 X116.339 Y82.905 E7.01335
G1 X117.606 Y83.458 E7.06359
G1 X119.642 Y84.613 E7.14868
G1 X120.806 Y85.447 E7.20069
G1 X137.871 Y99.042 E7.99366
G1 X139.011 Y100.326 E8.05605
G1 X139.927 Y101.944 E8.12363
G1 X140.3 Y102.932 E8.162
G1 X140.544 Y103.973 E8.20085
G1 X140.668 Y105.256 E8.24772
G1 X140.669 Y134.688 E9.31738
G1 X140.594 Y135.759 E9.3564
G1 X140.151 Y137.506 E9.42187
G1 X139.675 Y138.593 E9.46501
G1 X138.911 Y139.798 E9.51687
G1 X138.13 Y140.712 E9.56055
G1 X137.079 Y141.621 E9.61108
G1 X135.926 Y142.334 E9.66034
G1 X134.878 Y142.791 E9.70187
G1 X133.424 Y143.191 E9.75671
G1 X132.084 Y143.317 E9.80562
G1 X107.042 Y143.317 E10.71571
G1 X104.955 Y143.183 E10.79171
G1 X102.859 Y142.794 E10.8692
G1 X100.774 Y142.138 E10.94861
G1 X99.319 Y141.505 E11.0063
G1 X97.456 Y140.45 E11.08411
G1 X95.709 Y139.159 E11.16307
G1 X94.421 Y137.967 E11.22683
G1 X92.988 Y136.312 E11.30639
G1 X91.791 Y134.533 E11.38434
G1 X90.788 Y132.556 E11.46491
G1 X90.081 Y130.614 E11.53999
G1 X89.717 Y129.188 E11.59349
G1 X89.465 Y127.681 E11.64901
G1 X89.344 Y126.168 E11.70419
G1 X89.336 Y99.056 E12.68951
G1 X89.483 Y97.18 E12.7579
G1 X89.978 Y95.337 E12.82726
G1 X90.422 Y94.333 E12.86716
G1 X90.907 Y93.492 E12.90243
G1 X92.05 Y92.043 E12.96952
G92 E0
G1 E-4.2 F3600
;WIPE_START
G1 F7200
G1 X94.611 Y89.513 E-5.91
;WIPE_END
G1 E-6 F3600
G1 X100.152 Y95.36 F9000
G1 X108.255 Y98.678
G1 E0 F2400
;WIDTH:0.564
G1 F1200
G1 X108.394 Y98.45 E0.01159
G1 X108.655 Y98.162 E0.02841
G1 X108.969 Y97.937 E0.04516
G1 X109.327 Y97.783 E0.06204
G1 X109.586 Y97.725 E0.07353
G1 X109.987 Y97.711 E0.09089
G1 X110.244 Y97.749 E0.10217
G1 X110.621 Y97.88 E0.11946
G1 X110.93 Y98.067 E0.13509
G1 X111.225 Y98.346 E0.15271
G1 X111.384 Y98.568 E0.16454
G1 X111.552 Y98.932 E0.18193
G1 X111.635 Y99.321 E0.19917
G1 X111.636 Y99.683 E0.21484
G1 X111.588 Y99.95 E0.22659
G1 X111.446 Y100.319 E0.24371
G1 X111.229 Y100.649 E0.26084
G1 X111.039 Y100.845 E0.27264
G1 X110.747 Y101.054 E0.28823
G1 X110.376 Y101.216 E0.30574
G1 X110.112 Y101.276 E0.3175
G1 X109.712 Y101.289 E0.33482
G1 X109.449 Y101.25 E0.34635
G1 X109.072 Y101.117 E0.36367
G1 X108.766 Y100.929 E0.37924
G1 X108.475 Y100.654 E0.39658
G1 X108.316 Y100.432 E0.40841
G1 X108.148 Y100.068 E0.42581
G1 X108.067 Y99.688 E0.44263
G1 X108.067 Y99.307 E0.45912
G1 X108.112 Y99.052 E0.47037
G1 X108.233 Y98.734 E0.48512
G1 X107.99 Y98.641 F9000
G1 X107.747 Y98.548
G1 F1200
G1 X107.785 Y98.447 E0.4898
G1 X107.975 Y98.136 E0.50561
G1 X108.307 Y97.771 E0.52696
G1 X108.712 Y97.48 E0.54856
G1 X109.166 Y97.286 E0.56996
G1 X109.519 Y97.206 E0.58563
G1 X110.016 Y97.188 E0.60721
G1 X110.369 Y97.241 E0.62266
G1 X110.844 Y97.405 E0.64443
G1 X111.247 Y97.65 E0.66487
G1 X111.619 Y98.002 E0.68706
G1 X111.836 Y98.304 E0.7032
G1 X112.05 Y98.767 E0.72527
G1 X112.156 Y99.266 E0.7474
G1 X112.157 Y99.729 E0.76745
G1 X112.092 Y100.091 E0.78337
G1 X111.913 Y100.558 E0.80506
G1 X111.637 Y100.977 E0.82677
G1 X111.381 Y101.241 E0.84275
G1 X111.006 Y101.509 E0.86272
G1 X110.54 Y101.713 E0.88474
G1 X110.178 Y101.795 E0.9008
G1 X109.682 Y101.812 E0.92233
G1 X109.323 Y101.758 E0.93806
G1 X108.847 Y101.59 E0.95992
G1 X108.447 Y101.345 E0.98026
G1 X108.081 Y100.998 E1.0021
G1 X107.864 Y100.696 E1.01824
G1 X107.65 Y100.233 E1.0403
G1 X107.545 Y99.743 E1.06203
G1 X107.545 Y99.261 E1.0829
G1 X107.608 Y98.912 E1.09827
G1 X107.725 Y98.604 E1.11255
G1 X107.483 Y98.5 F9000
G1 X107.241 Y98.396
G1 F1200
G1 X107.324 Y98.203 E1.12167
G1 X107.541 Y97.848 E1.13969
G1 X107.677 Y97.673 E1.1493
G1 X107.969 Y97.372 E1.16748
G1 X108.429 Y97.042 E1.192
G1 X108.63 Y96.936 E1.20183
G1 X109.017 Y96.785 E1.21983
G1 X109.426 Y96.692 E1.23803
G1 X109.684 Y96.666 E1.24925
G1 X110.061 Y96.668 E1.26561
G1 X110.477 Y96.73 E1.28382
G1 X110.837 Y96.838 E1.30008
G1 X111.077 Y96.939 E1.31138
G1 X111.392 Y97.116 E1.32706
G1 X111.574 Y97.244 E1.33667
G1 X111.882 Y97.517 E1.35452
G1 X112.032 Y97.683 E1.36418
G1 X112.271 Y98.016 E1.38195
G1 X112.379 Y98.208 E1.39149
G1 X112.538 Y98.585 E1.40925
G1 X112.602 Y98.799 E1.41892
G1 X112.675 Y99.211 E1.43702
G1 X112.688 Y99.576 E1.45287
G1 X112.674 Y99.801 E1.46262
G1 X112.602 Y100.201 E1.48024
G1 X112.539 Y100.412 E1.48979
G1 X112.377 Y100.796 E1.50784
G1 X112.159 Y101.152 E1.52591
G1 X112.024 Y101.326 E1.53547
G1 X111.74 Y101.619 E1.55314
G1 X111.567 Y101.761 E1.56284
G1 X111.263 Y101.963 E1.57866
G1 X110.886 Y102.144 E1.59679
G1 X110.673 Y102.218 E1.60652
G1 X110.275 Y102.307 E1.62421
G1 X110.056 Y102.332 E1.63377
G1 X109.639 Y102.332 E1.65185
G1 X109.227 Y102.27 E1.66989
G1 X109.014 Y102.213 E1.67944
G1 X108.635 Y102.066 E1.69704
G1 X108.433 Y101.96 E1.70693
G1 X108.129 Y101.758 E1.72276
G1 X107.818 Y101.483 E1.74077
G1 X107.668 Y101.317 E1.75042
G1 X107.429 Y100.984 E1.76819
G1 X107.322 Y100.792 E1.77773
G1 X107.162 Y100.415 E1.79549
G1 X107.098 Y100.201 E1.80516
G1 X107.024 Y99.785 E1.82347
G1 X107.024 Y99.215 E1.84813
G1 X107.099 Y98.798 E1.8665
G1 X107.175 Y98.549 E1.87778
G1 X107.217 Y98.451 E1.88239
G92 E0
G1 E-4.2 F3600
;WIPE_START
G1 F7200
G1 X107.324 Y98.203 E-4.32849
G1 X107.541 Y97.848 E-4.52605
G1 X107.677 Y97.673 E-4.63138
G1 X107.969 Y97.372 E-4.83067
G1 X108.429 Y97.042 E-5.0995
G1 X108.63 Y96.936 E-5.20727
G1 X109.017 Y96.785 E-5.40455
G1 X109.426 Y96.692 E-5.6041
G1 X109.684 Y96.666 E-5.72707
G1 X110.061 Y96.668 E-5.9064
G1 X110.069 Y96.669 E-5.91
;WIPE_END
G1 E-6 F3600
G1 X102.307 Y95.745 F9000
G1 X97.398 Y93.038
G1 E0 F2400
G1 F1200
G1 X97.474 Y92.894 E0.00705
G1 X97.954 Y92.064 E0.04862
G1 X98.031 Y91.941 E0.05491
G1 X98.394 Y91.404 E0.08297
G1 X98.464 Y91.306 E0.0882
G1 X98.982 Y90.628 E0.12516
G1 X99.087 Y90.501 E0.13232
G1 X99.734 Y89.78 E0.17429
G1 X99.834 Y89.676 E0.18055
G1 X100.3 Y89.225 E0.20863
G1 X100.39 Y89.142 E0.21393
G1 X101.036 Y88.585 E0.25092
G1 X101.165 Y88.482 E0.25805
G1 X101.958 Y87.901 E0.30065
G1 X102.101 Y87.805 E0.30812
G1 X102.944 Y87.288 E0.35093
G1 X103.094 Y87.204 E0.3584
G1 X103.976 Y86.759 E0.40121
G1 X104.133 Y86.688 E0.40868
G1 X105.035 Y86.324 E0.4508
G1 X105.168 Y86.275 E0.45697
G1 X105.785 Y86.073 E0.48508
G1 X105.906 Y86.038 E0.49054
G1 X106.733 Y85.821 E0.52759
G1 X106.892 Y85.786 E0.53465
G1 X107.859 Y85.613 E0.57721
G1 X108.03 Y85.589 E0.58468
G1 X109.014 Y85.496 E0.6275
G1 X109.187 Y85.487 E0.63501
G1 X110.167 Y85.475 E0.6775
G1 X110.308 Y85.478 E0.68361
G1 X110.948 Y85.514 E0.71134
G1 X111.075 Y85.525 E0.71688
G1 X111.93 Y85.626 E0.7542
G1 X112.101 Y85.653 E0.76167
G1 X113.15 Y85.866 E0.80806
G1 X113.286 Y85.898 E0.81411
G1 X113.81 Y86.041 E0.83767
G1 X113.925 Y86.076 E0.84287
G1 X114.736 Y86.349 E0.87995
G1 X114.896 Y86.41 E0.88737
G1 X115.879 Y86.833 E0.93373
G1 X116.006 Y86.893 E0.93981
G1 X116.49 Y87.142 E0.9634
G1 X116.596 Y87.2 E0.96862
G1 X117.333 Y87.633 E1.00569
G1 X117.476 Y87.725 E1.01306
G1 X118.351 Y88.341 E1.05941
G1 X118.463 Y88.426 E1.0655
G1 X118.887 Y88.769 E1.08912
G1 X118.979 Y88.848 E1.09437
G1 X119.611 Y89.424 E1.13144
G1 X119.731 Y89.542 E1.13875
G1 X120.477 Y90.341 E1.18608
G1 X120.597 Y90.481 E1.19407
G1 X121.195 Y91.248 E1.2362
G1 X121.271 Y91.352 E1.24181
G1 X121.576 Y91.797 E1.26515
G1 X121.642 Y91.899 E1.27043
G1 X122.083 Y92.632 E1.30748
G1 X122.163 Y92.778 E1.31472
G1 X122.649 Y93.756 E1.36202
G1 X122.724 Y93.925 E1.37004
G1 X123.087 Y94.852 E1.41319
G1 X123.143 Y95.016 E1.42067
G1 X123.426 Y95.962 E1.46348
G1 X123.469 Y96.13 E1.47096
G1 X123.672 Y97.096 E1.51377
G1 X123.701 Y97.267 E1.52124
G1 X123.824 Y98.251 E1.56424
G1 X123.839 Y98.431 E1.57207
G1 X123.878 Y99.469 E1.61705
G1 X123.899 Y99.657 E1.62526
G1 X123.922 Y99.76 E1.62981
G1 X123.955 Y99.859 E1.63437
G1 X124. Y99.955 E1.63893
G1 X124.055 Y100.045 E1.64349
G1 X124.128 Y100.14 E1.6487
G1 X124.21 Y100.227 E1.65389
G1 X124.247 Y100.256 E1.65591
G1 X124.323 Y100.308 E1.65991
G1 X124.482 Y100.391 E1.6677
G1 X124.577 Y100.429 E1.67213
G1 X124.622 Y100.44 E1.6741
G1 X124.735 Y100.458 E1.67908
G1 X124.97 Y100.471 E1.68927
G1 X131.948 Y100.471 E1.9916
G1 X132.136 Y100.479 E1.99979
G1 X132.501 Y100.512 E2.01565
G1 X132.749 Y100.55 E2.0265
G1 X133.019 Y100.608 E2.03848
G1 X133.252 Y100.672 E2.04897
G1 X133.709 Y100.827 E2.06988
G1 X133.992 Y100.947 E2.08319
G1 X134.3 Y101.105 E2.09817
G1 X134.562 Y101.265 E2.11148
G1 X134.986 Y101.568 E2.13407
G1 X135.223 Y101.766 E2.14745
G1 X135.473 Y102.008 E2.1625
G1 X135.678 Y102.238 E2.17588
G1 X135.975 Y102.627 E2.1971
G1 X136.117 Y102.838 E2.2081
G1 X136.262 Y103.084 E2.22048
G1 X136.377 Y103.311 E2.23148
G1 X136.549 Y103.706 E2.25014
G1 X136.641 Y103.964 E2.26205
G1 X136.726 Y104.262 E2.27546
G1 X136.784 Y104.531 E2.28738
G1 X136.856 Y105.019 E2.30874
G1 X136.878 Y105.321 E2.32187
G1 X136.879 Y108.591 E2.46356
G1 X136.872 Y108.762 E2.47097
G1 X136.857 Y108.954 E2.47929
G1 X136.836 Y109.123 E2.48667
G1 X136.762 Y109.569 E2.50626
G1 X136.699 Y109.841 E2.51837
G1 X136.607 Y110.141 E2.53198
G1 X136.507 Y110.402 E2.54408
G1 X136.345 Y110.753 E2.56084
G1 X136.248 Y110.94 E2.56998
G1 X136.127 Y111.145 E2.58027
G1 X136.011 Y111.321 E2.58942
G1 X135.74 Y111.69 E2.60923
G1 X135.522 Y111.942 E2.62366
G1 X135.255 Y112.204 E2.6399
G1 X135. Y112.418 E2.65432
G1 X134.523 Y112.757 E2.67969
G1 X134.25 Y112.921 E2.69348
G1 X133.93 Y113.082 E2.709
G1 X133.635 Y113.203 E2.7228
G1 X133.199 Y113.343 E2.74264
G1 X132.98 Y113.401 E2.75248
G1 X132.73 Y113.453 E2.76354
G1 X132.505 Y113.487 E2.77338
G1 X132.161 Y113.519 E2.78835
G1 X131.964 Y113.529 E2.79689
G1 X117.158 Y113.529 E3.43842
G1 X117.333 Y113.632 E3.44724
G1 X117.476 Y113.724 E3.45461
G1 X118.351 Y114.34 E3.50096
G1 X118.463 Y114.425 E3.50705
G1 X118.887 Y114.768 E3.53067
G1 X118.979 Y114.847 E3.53592
G1 X119.611 Y115.423 E3.57299
G1 X119.731 Y115.541 E3.5803
G1 X120.477 Y116.34 E3.62763
G1 X120.597 Y116.48 E3.63562
G1 X121.195 Y117.247 E3.67775
G1 X121.271 Y117.351 E3.68336
G1 X121.576 Y117.796 E3.7067
G1 X121.642 Y117.898 E3.71199
G1 X122.083 Y118.631 E3.74903
G1 X122.163 Y118.777 E3.75627
G1 X122.649 Y119.754 E3.80357
G1 X122.724 Y119.924 E3.8116
G1 X123.087 Y120.851 E3.85474
G1 X123.143 Y121.014 E3.86222
G1 X123.426 Y121.961 E3.90503
G1 X123.469 Y122.128 E3.91251
G1 X123.672 Y123.095 E3.95532
G1 X123.701 Y123.265 E3.96279
G1 X123.824 Y124.25 E4.00579
G1 X123.839 Y124.43 E4.01362
G1 X123.878 Y125.468 E4.0586
G1 X123.899 Y125.656 E4.06681
G1 X123.922 Y125.759 E4.07137
G1 X123.955 Y125.858 E4.07592
G1 X124. Y125.953 E4.08048
G1 X124.055 Y126.043 E4.08504
G1 X124.128 Y126.139 E4.09025
G1 X124.21 Y126.226 E4.09544
G1 X124.247 Y126.255 E4.09746
G1 X124.323 Y126.307 E4.10146
G1 X124.482 Y126.39 E4.10925
G1 X124.577 Y126.428 E4.11368
G1 X124.622 Y126.438 E4.11565
G1 X124.735 Y126.457 E4.12063
G1 X124.97 Y126.47 E4.13082
G1 X131.948 Y126.47 E4.43315
G1 X132.136 Y126.478 E4.44134
G1 X132.501 Y126.511 E4.4572
G1 X132.749 Y126.549 E4.46805
G1 X133.019 Y126.607 E4.48003
G1 X133.252 Y126.671 E4.49052
G1 X133.709 Y126.826 E4.51143
G1 X133.992 Y126.946 E4.52474
G1 X134.3 Y127.103 E4.53972
G1 X134.562 Y127.263 E4.55304
G1 X134.986 Y127.567 E4.57563
G1 X135.223 Y127.765 E4.589
G1 X135.473 Y128.007 E4.60406
G1 X135.678 Y128.237 E4.61743
G1 X135.975 Y128.626 E4.63865
G1 X136.117 Y128.837 E4.64965
G1 X136.262 Y129.083 E4.66203
G1 X136.377 Y129.309 E4.67303
G1 X136.549 Y129.704 E4.69169
G1 X136.641 Y129.963 E4.7036
G1 X136.726 Y130.261 E4.71701
G1 X136.784 Y130.53 E4.72893
G1 X136.856 Y131.018 E4.75029
G1 X136.878 Y131.32 E4.76342
G1 X136.879 Y134.59 E4.90511
G1 X136.872 Y134.761 E4.91253
G1 X136.857 Y134.952 E4.92084
G1 X136.836 Y135.121 E4.92822
G1 X136.762 Y135.567 E4.94781
G1 X136.699 Y135.839 E4.95992
G1 X136.607 Y136.14 E4.97353
G1 X136.507 Y136.401 E4.98563
G1 X136.345 Y136.752 E5.00239
G1 X136.248 Y136.939 E5.01153
G1 X136.127 Y137.144 E5.02183
G1 X136.011 Y137.32 E5.03097
G1 X135.74 Y137.689 E5.05078
G1 X135.522 Y137.94 E5.06521
G1 X135.255 Y138.203 E5.08145
G1 X135. Y138.417 E5.09587
G1 X134.523 Y138.756 E5.12124
G1 X134.25 Y138.92 E5.13503
G1 X133.93 Y139.081 E5.15056
G1 X133.635 Y139.201 E5.16435
G1 X133.199 Y139.342 E5.18419
G1 X132.98 Y139.4 E5.19403
G1 X132.73 Y139.452 E5.20509
G1 X132.505 Y139.485 E5.21493
G1 X132.161 Y139.518 E5.2299
G1 X131.964 Y139.527 E5.23844
G1 X107.106 Y139.528 E6.3155
G1 X107.021 Y139.526 E6.3192
G1 X106.091 Y139.488 E6.35952
G1 X105.921 Y139.474 E6.3669
G1 X104.948 Y139.354 E6.40938
G1 X104.779 Y139.326 E6.4168
G1 X103.818 Y139.127 E6.4593
G1 X103.652 Y139.085 E6.46672
G1 X102.712 Y138.808 E6.50922
G1 X102.549 Y138.752 E6.51664
G1 X101.635 Y138.398 E6.55914
G1 X101.478 Y138.33 E6.56656
G1 X100.595 Y137.902 E6.60906
G1 X100.444 Y137.822 E6.61648
G1 X99.599 Y137.323 E6.65898
G1 X99.456 Y137.23 E6.6664
G1 X98.669 Y136.673 E6.70817
G1 X98.557 Y136.589 E6.71422
G1 X98.058 Y136.183 E6.74211
G1 X97.961 Y136.099 E6.74765
G1 X97.348 Y135.535 E6.78377
G1 X97.256 Y135.445 E6.78932
G1 X96.814 Y134.985 E6.81695
G1 X96.728 Y134.889 E6.82255
G1 X96.188 Y134.253 E6.85867
G1 X96.11 Y134.154 E6.86416
G1 X95.727 Y133.644 E6.89178
G1 X95.652 Y133.537 E6.89745
G1 X95.195 Y132.839 E6.93358
G1 X95.13 Y132.733 E6.93899
G1 X94.811 Y132.176 E6.96681
G1 X94.745 Y132.051 E6.97293
G1 X94.326 Y131.189 E7.01446
G1 X94.261 Y131.04 E7.02151
G1 X93.95 Y130.247 E7.0584
G1 X93.909 Y130.132 E7.0637
G1 X93.71 Y129.522 E7.09149
G1 X93.67 Y129.385 E7.09768
G1 X93.435 Y128.454 E7.13928
G1 X93.402 Y128.293 E7.14638
G1 X93.259 Y127.455 E7.18324
G1 X93.243 Y127.336 E7.18843
G1 X93.172 Y126.7 E7.21618
G1 X93.161 Y126.555 E7.22244
G1 X93.121 Y125.6 E7.26387
G1 X93.121 Y125.446 E7.27053
G1 X93.154 Y124.411 E7.3154
G1 X93.179 Y124.147 E7.32691
G1 X93.274 Y123.558 E7.35274
G1 X93.321 Y123.341 E7.36239
G1 X93.386 Y123.103 E7.37307
G1 X93.454 Y122.898 E7.38243
G1 X93.666 Y122.351 E7.40786
G1 X93.75 Y122.163 E7.41675
G1 X93.854 Y121.957 E7.42676
G1 X93.956 Y121.779 E7.43565
G1 X94.244 Y121.327 E7.45885
G1 X94.408 Y121.103 E7.47092
G1 X94.735 Y120.715 E7.49289
