; generated by SuperSlicer 2.3.57 on 2022-08-31 at 22:29:11 UTC

; 

; external perimeters extrusion width = 0.42mm
; perimeters extrusion width = 0.46mm
; infill extrusion width = 0.44mm
; solid infill extrusion width = 0.46mm
; top infill extrusion width = 0.44mm
; first layer extrusion width = 0.56mm

; object:{"name":"[a]_belt_tensioner_b_x2","id":"[a]_belt_tensioner_b_x2.stl id:0 copy 0","object_center":[115.000038,99.500563,0.000000],"boundingbox_center":[115.000038,99.500563,4.400005],"boundingbox_size":[35.700012,19.998672,8.800011]}
; object:{"name":"[a]_belt_tensioner_b_x2","id":"[a]_belt_tensioner_b_x2.stl id:1 copy 0","object_center":[115.000038,125.499336,0.000000],"boundingbox_center":[115.000038,125.499336,4.400005],"boundingbox_size":[35.700012,19.998672,8.800011]}
; Total objects to print: 2
M486 T2
; plater:{"center":[115.000038,112.499949,0.000000],"boundingbox_center":[115.000038,112.499949,4.400005],"boundingbox_size":[35.700012,45.997445,8.800011]}

;TYPE:Custom
G90 ; use absolute coordinates
M83 ; extruder relative mode
M140 S90 ; set final bed temp
M104 S150 ; set temporary nozzle temp to prevent oozing during homing and auto bed leveling
G4 S10 ; allow partial nozzle warmup
G28 ; home all axis
G29; ABL
G1 Z50 F240
G1 X2 Y10 F3000
M104 S245 ; set final nozzle temp
M190 S90 ; wait for bed temp to stabilize
M109 S245 ; wait for nozzle temp to stabilize
G1 Z0.28 F240
G92 E0
G1 Y140 E10 F1500 ; prime the nozzle
G1 X2.3 F5000
G92 E0
G1 Y10 E10 F1200 ; prime the nozzle
G92 E0
M107
G21 ; set units to millimeters
G90 ; use absolute coordinates
M82 ; use absolute distances for extrusion
G92 E0
; Filament gcode
M107
;LAYER_CHANGE
;Z:0.2
;HEIGHT:0.2
;BEFORE_LAYER_CHANGE
;0.2


G1 E-6 F3600
G1 Z0.2 F9000
;AFTER_LAYER_CHANGE
;0.2
G92 E0
M204 P500
G1 X47.214 Y43.513
G1 X94.429 Y87.025
G1 E6 F2400
;TYPE:Skirt
;WIDTH:0.48
G1 F1200
G1 X95.74 Y85.814 E6.06487
G1 X97.46 Y84.547 E6.14252
G1 X99.32 Y83.495 E6.22017
G1 X100.771 Y82.863 E6.27769
G1 X102.825 Y82.215 E6.35598
G1 X104.952 Y81.818 E6.4346
G1 X107.043 Y81.683 E6.51075
G1 X132.07 Y81.684 E7.42033
G1 X133.147 Y81.766 E7.45957
G1 X134.19 Y81.991 E7.49837
G1 X135.482 Y82.454 E7.54824
G1 X136.859 Y83.222 E7.60554
G1 X137.895 Y84.063 E7.65404
G1 X138.956 Y85.251 E7.71194
G1 X139.711 Y86.469 E7.76401
G1 X140.274 Y87.842 E7.81796
G1 X140.566 Y89.087 E7.86441
G1 X140.667 Y90.27 E7.90759
G1 X140.668 Y119.759 E8.9793
G1 X140.578 Y120.874 E9.01997
G1 X140.301 Y122.057 E9.06412
G1 X139.716 Y123.516 E9.12123
G1 X138.85 Y124.883 E9.18003
G1 X138.043 Y125.801 E9.22447
G1 X137.154 Y126.557 E9.26688
G1 X120.788 Y139.567 E10.02672
G1 X119.012 Y140.783 E10.10493
G1 X117.627 Y141.533 E10.16219
G1 X115.624 Y142.358 E10.2409
G1 X113.57 Y142.926 E10.31837
G1 X111.807 Y143.211 E10.38328
G1 X109.621 Y143.317 E10.4628
G1 X107.444 Y143.156 E10.54214
G1 X105.337 Y142.738 E10.62022
G1 X103.807 Y142.263 E10.67845
G1 X101.835 Y141.415 E10.75645
G1 X99.925 Y140.299 E10.83684
G1 X98.172 Y138.96 E10.917
G1 X91.954 Y132.856 E11.23369
G1 X90.991 Y131.635 E11.29019
G1 X90.43 Y130.679 E11.33048
G1 X89.824 Y129.198 E11.38864
G1 X89.508 Y127.95 E11.43543
G1 X89.382 Y126.955 E11.47189
G1 X89.331 Y125.494 E11.52502
G1 X89.346 Y98.756 E12.49677
G1 X89.56 Y96.652 E12.57361
G1 X89.871 Y95.146 E12.6295
G1 X90.512 Y93.121 E12.70669
G1 X91.142 Y91.674 E12.76405
G1 X92.165 Y89.859 E12.83977
G1 X93.058 Y88.595 E12.896
G1 X94.389 Y87.07 E12.96958
G92 E0
G1 E-4.2 F3600
;WIPE_START
G1 F7200
G1 X95.74 Y85.814 E-5.07621
G1 X97.153 Y84.773 E-5.91
;WIPE_END
G1 E-6 F3600
G1 X101.392 Y92.761 F9000
G1 X108.394 Y98.451
G1 E0 F2400
;WIDTH:0.564
G1 F1200
G1 X108.655 Y98.164 E0.01683
G1 X108.969 Y97.938 E0.03357
G1 X109.327 Y97.785 E0.05045
G1 X109.586 Y97.726 E0.06194
G1 X109.987 Y97.712 E0.0793
G1 X110.244 Y97.75 E0.09058
G1 X110.621 Y97.881 E0.10787
G1 X110.93 Y98.068 E0.1235
G1 X111.225 Y98.347 E0.14112
G1 X111.384 Y98.569 E0.15295
G1 X111.552 Y98.933 E0.17034
G1 X111.635 Y99.323 E0.18758
G1 X111.636 Y99.684 E0.20325
G1 X111.588 Y99.951 E0.215
G1 X111.446 Y100.32 E0.23212
G1 X111.229 Y100.65 E0.24925
G1 X111.039 Y100.846 E0.26106
G1 X110.747 Y101.055 E0.27664
G1 X110.376 Y101.217 E0.29416
G1 X110.112 Y101.277 E0.30591
G1 X109.712 Y101.29 E0.32324
G1 X109.449 Y101.251 E0.33476
G1 X109.072 Y101.119 E0.35208
G1 X108.766 Y100.931 E0.36765
G1 X108.475 Y100.655 E0.38499
G1 X108.316 Y100.433 E0.39683
G1 X108.148 Y100.069 E0.41422
G1 X108.067 Y99.689 E0.43104
G1 X108.067 Y99.309 E0.44753
G1 X108.112 Y99.053 E0.45878
G1 X108.255 Y98.679 E0.47613
G1 X108.363 Y98.502 E0.48512
G1 X108.141 Y98.366 F9000
G1 X107.918 Y98.23
G1 F1200
G1 X107.975 Y98.137 E0.48986
G1 X108.307 Y97.772 E0.51121
G1 X108.712 Y97.482 E0.53281
G1 X109.166 Y97.287 E0.55421
G1 X109.519 Y97.207 E0.56989
G1 X110.016 Y97.189 E0.59147
G1 X110.369 Y97.242 E0.60691
G1 X110.844 Y97.406 E0.62868
G1 X111.247 Y97.651 E0.64912
G1 X111.619 Y98.003 E0.67132
G1 X111.836 Y98.306 E0.68745
G1 X112.05 Y98.768 E0.70952
G1 X112.156 Y99.267 E0.73165
G1 X112.157 Y99.73 E0.75171
G1 X112.092 Y100.092 E0.76762
G1 X111.913 Y100.559 E0.78931
G1 X111.637 Y100.978 E0.81102
G1 X111.381 Y101.243 E0.827
G1 X111.006 Y101.511 E0.84697
G1 X110.54 Y101.715 E0.869
G1 X110.178 Y101.796 E0.88506
G1 X109.682 Y101.813 E0.90658
G1 X109.323 Y101.759 E0.92231
G1 X108.847 Y101.592 E0.94417
G1 X108.447 Y101.346 E0.96451
G1 X108.081 Y101. E0.98636
G1 X107.864 Y100.697 E1.00249
G1 X107.65 Y100.235 E1.02456
G1 X107.545 Y99.744 E1.04628
G1 X107.545 Y99.263 E1.06715
G1 X107.608 Y98.913 E1.08252
G1 X107.785 Y98.448 E1.10409
G1 X107.887 Y98.282 E1.11255
G1 X107.665 Y98.146 F9000
G1 X107.442 Y98.01
G1 F1200
G1 X107.541 Y97.849 E1.12072
G1 X107.677 Y97.674 E1.13033
G1 X107.969 Y97.373 E1.1485
G1 X108.429 Y97.043 E1.17302
G1 X108.63 Y96.938 E1.18286
G1 X109.017 Y96.787 E1.20085
G1 X109.426 Y96.693 E1.21905
G1 X109.684 Y96.668 E1.23027
G1 X110.061 Y96.669 E1.24663
G1 X110.477 Y96.732 E1.26484
G1 X110.837 Y96.839 E1.2811
G1 X111.077 Y96.941 E1.2924
G1 X111.392 Y97.118 E1.30808
G1 X111.574 Y97.245 E1.31769
G1 X111.882 Y97.518 E1.33555
G1 X112.032 Y97.684 E1.3452
G1 X112.271 Y98.017 E1.36297
G1 X112.379 Y98.209 E1.37251
G1 X112.538 Y98.587 E1.39027
G1 X112.602 Y98.801 E1.39994
G1 X112.675 Y99.212 E1.41805
G1 X112.688 Y99.577 E1.43389
G1 X112.674 Y99.802 E1.44364
G1 X112.602 Y100.202 E1.46126
G1 X112.539 Y100.414 E1.47081
G1 X112.377 Y100.797 E1.48886
G1 X112.159 Y101.153 E1.50693
G1 X112.024 Y101.328 E1.51649
G1 X111.74 Y101.62 E1.53417
G1 X111.567 Y101.762 E1.54386
G1 X111.263 Y101.964 E1.55968
G1 X110.886 Y102.145 E1.57781
G1 X110.673 Y102.219 E1.58754
G1 X110.275 Y102.309 E1.60523
G1 X110.056 Y102.333 E1.61479
G1 X109.639 Y102.333 E1.63287
G1 X109.227 Y102.271 E1.65091
G1 X109.014 Y102.215 E1.66046
G1 X108.635 Y102.068 E1.67806
G1 X108.433 Y101.962 E1.68795
G1 X108.129 Y101.76 E1.70378
G1 X107.818 Y101.484 E1.72179
G1 X107.668 Y101.319 E1.73144
G1 X107.429 Y100.985 E1.74921
G1 X107.322 Y100.793 E1.75875
G1 X107.162 Y100.416 E1.77651
G1 X107.098 Y100.202 E1.78618
G1 X107.024 Y99.786 E1.80449
G1 X107.024 Y99.217 E1.82915
G1 X107.099 Y98.799 E1.84753
G1 X107.175 Y98.55 E1.8588
G1 X107.324 Y98.204 E1.87513
G1 X107.411 Y98.061 E1.88239
G92 E0
G1 E-4.2 F3600
;WIPE_START
G1 F7200
G1 X107.541 Y97.849 E-4.31799
G1 X107.677 Y97.674 E-4.42333
G1 X107.969 Y97.373 E-4.62261
G1 X108.429 Y97.043 E-4.89144
G1 X108.63 Y96.938 E-4.99922
G1 X109.017 Y96.787 E-5.1965
G1 X109.426 Y96.693 E-5.39605
G1 X109.684 Y96.668 E-5.51901
G1 X110.061 Y96.669 E-5.69835
G1 X110.477 Y96.732 E-5.89798
G1 X110.501 Y96.739 E-5.91
;WIPE_END
G1 E-6 F3600
G1 X107.411 Y91.767 F9000
G1 X107.412 Y85.472
G1 E0 F2400
G1 F1200
G1 X132.012 Y85.474 E1.06589
G1 X132.259 Y85.488 E1.07658
G1 X132.534 Y85.521 E1.08861
G1 X132.777 Y85.565 E1.0993
G1 X133.349 Y85.703 E1.12477
G1 X133.706 Y85.824 E1.14113
G1 X134.095 Y85.996 E1.15954
G1 X134.424 Y86.18 E1.1759
G1 X134.934 Y86.528 E1.20265
G1 X135.22 Y86.762 E1.21865
G1 X135.517 Y87.054 E1.23666
G1 X135.756 Y87.335 E1.25267
G1 X136.133 Y87.865 E1.28086
G1 X136.331 Y88.209 E1.29807
G1 X136.517 Y88.616 E1.31744
G1 X136.646 Y88.992 E1.33466
G1 X136.787 Y89.575 E1.36066
G1 X136.831 Y89.82 E1.37142
G1 X136.863 Y90.097 E1.38354
G1 X136.878 Y90.345 E1.39431
G1 X136.872 Y93.735 E1.54116
G1 X136.857 Y93.981 E1.55183
G1 X136.824 Y94.256 E1.56385
G1 X136.78 Y94.498 E1.57453
G1 X136.689 Y94.874 E1.59128
G1 X136.617 Y95.11 E1.60198
G1 X136.52 Y95.371 E1.61401
G1 X136.42 Y95.596 E1.62471
G1 X136.213 Y96.001 E1.6444
G1 X136.085 Y96.215 E1.65521
G1 X135.928 Y96.448 E1.66738
G1 X135.776 Y96.646 E1.6782
G1 X135.522 Y96.939 E1.69498
G1 X135.351 Y97.114 E1.7056
G1 X135.147 Y97.3 E1.71754
G1 X134.957 Y97.454 E1.72816
G1 X134.562 Y97.737 E1.74919
G1 X134.3 Y97.897 E1.7625
G1 X133.992 Y98.054 E1.77748
G1 X133.709 Y98.174 E1.7908
G1 X133.252 Y98.329 E1.81171
G1 X133.019 Y98.393 E1.8222
G1 X132.753 Y98.45 E1.834
G1 X132.513 Y98.487 E1.84448
G1 X132.161 Y98.521 E1.85982
G1 X131.964 Y98.53 E1.86835
G1 X124.961 Y98.53 E2.1718
G1 X124.719 Y98.543 E2.18228
G1 X124.571 Y98.575 E2.18886
G1 X124.527 Y98.588 E2.19083
G1 X124.434 Y98.631 E2.19528
G1 X124.28 Y98.723 E2.20306
G1 X124.206 Y98.779 E2.20705
G1 X124.105 Y98.885 E2.2134
G1 X124.026 Y99.001 E2.21948
G1 X123.976 Y99.094 E2.22404
G1 X123.923 Y99.225 E2.23018
G1 X123.9 Y99.334 E2.23499
G1 X123.882 Y99.501 E2.24226
G1 X123.868 Y100.068 E2.26684
G1 X123.862 Y100.19 E2.27216
G1 X123.784 Y101.131 E2.31308
G1 X123.767 Y101.276 E2.31937
G1 X123.669 Y101.915 E2.34742
G1 X123.647 Y102.034 E2.35263
G1 X123.47 Y102.868 E2.38959
G1 X123.429 Y103.028 E2.39675
G1 X123.148 Y103.971 E2.43937
G1 X123.092 Y104.134 E2.44684
G1 X122.733 Y105.055 E2.48965
G1 X122.664 Y105.213 E2.49712
G1 X122.23 Y106.1 E2.53994
G1 X122.148 Y106.252 E2.54741
G1 X121.643 Y107.101 E2.59022
G1 X121.548 Y107.245 E2.59769
G1 X120.974 Y108.05 E2.6405
G1 X120.868 Y108.186 E2.64798
G1 X120.23 Y108.94 E2.69079
G1 X120.113 Y109.067 E2.69826
G1 X119.41 Y109.77 E2.74135
G1 X119.274 Y109.894 E2.74934
G1 X118.435 Y110.596 E2.79673
G1 X118.3 Y110.7 E2.80408
G1 X117.599 Y111.195 E2.84128
G1 X117.499 Y111.262 E2.84649
G1 X117.163 Y111.472 E2.86366
G1 X132.012 Y111.472 E3.50704
G1 X132.259 Y111.487 E3.51774
G1 X132.534 Y111.52 E3.52977
G1 X132.777 Y111.563 E3.54046
G1 X133.349 Y111.701 E3.56593
G1 X133.706 Y111.823 E3.58229
G1 X134.095 Y111.995 E3.6007
G1 X134.424 Y112.179 E3.61705
G1 X134.934 Y112.527 E3.6438
G1 X135.22 Y112.761 E3.65981
G1 X135.517 Y113.052 E3.67782
G1 X135.756 Y113.333 E3.69383
G1 X136.133 Y113.864 E3.72201
G1 X136.331 Y114.208 E3.73923
G1 X136.517 Y114.615 E3.7586
G1 X136.646 Y114.99 E3.77581
G1 X136.787 Y115.574 E3.80181
G1 X136.831 Y115.818 E3.81258
G1 X136.863 Y116.096 E3.82469
G1 X136.878 Y116.344 E3.83546
G1 X136.872 Y119.733 E3.98231
G1 X136.857 Y119.979 E3.99299
G1 X136.824 Y120.255 E4.005
G1 X136.78 Y120.497 E4.01568
G1 X136.689 Y120.873 E4.03244
G1 X136.617 Y121.109 E4.04313
G1 X136.52 Y121.369 E4.05517
G1 X136.42 Y121.595 E4.06586
G1 X136.213 Y121.999 E4.08555
G1 X136.085 Y122.214 E4.09637
G1 X135.928 Y122.447 E4.10854
G1 X135.776 Y122.645 E4.11935
G1 X135.522 Y122.938 E4.13614
G1 X135.351 Y123.113 E4.14675
G1 X135.147 Y123.299 E4.15869
G1 X134.957 Y123.453 E4.16931
G1 X134.562 Y123.735 E4.19035
G1 X134.3 Y123.895 E4.20366
G1 X133.992 Y124.053 E4.21864
G1 X133.709 Y124.173 E4.23195
G1 X133.252 Y124.328 E4.25286
G1 X133.019 Y124.392 E4.26335
G1 X132.753 Y124.449 E4.27515
G1 X132.513 Y124.486 E4.28564
G1 X132.161 Y124.519 E4.30097
G1 X131.964 Y124.529 E4.3095
G1 X124.961 Y124.529 E4.61295
G1 X124.725 Y124.541 E4.62318
G1 X124.571 Y124.574 E4.63002
G1 X124.527 Y124.587 E4.63199
G1 X124.434 Y124.63 E4.63643
G1 X124.28 Y124.722 E4.64421
G1 X124.202 Y124.782 E4.64846
G1 X124.105 Y124.884 E4.65455
G1 X124.026 Y125. E4.66063
G1 X123.976 Y125.092 E4.66519
G1 X123.923 Y125.224 E4.67134
G1 X123.9 Y125.332 E4.67614
G1 X123.882 Y125.499 E4.68342
G1 X123.868 Y126.066 E4.70799
G1 X123.862 Y126.189 E4.71332
G1 X123.784 Y127.13 E4.75423
G1 X123.767 Y127.274 E4.76052
G1 X123.669 Y127.914 E4.78857
G1 X123.647 Y128.033 E4.79379
G1 X123.47 Y128.867 E4.83075
G1 X123.429 Y129.027 E4.83791
G1 X123.148 Y129.97 E4.88053
G1 X123.092 Y130.133 E4.888
G1 X122.733 Y131.053 E4.93081
G1 X122.664 Y131.211 E4.93828
G1 X122.23 Y132.099 E4.98109
G1 X122.148 Y132.251 E4.98856
G1 X121.643 Y133.1 E5.03138
G1 X121.548 Y133.244 E5.03885
G1 X120.974 Y134.048 E5.08166
G1 X120.868 Y134.184 E5.08913
G1 X120.23 Y134.938 E5.13194
G1 X120.113 Y135.065 E5.13941
G1 X119.41 Y135.768 E5.1825
G1 X119.274 Y135.893 E5.1905
G1 X118.435 Y136.595 E5.23789
G1 X118.3 Y136.698 E5.24524
G1 X117.599 Y137.194 E5.28244
G1 X117.499 Y137.261 E5.28764
G1 X117.043 Y137.545 E5.31093
G1 X116.931 Y137.61 E5.31655
G1 X116.084 Y138.068 E5.35825
G1 X115.93 Y138.143 E5.3657
G1 X115.025 Y138.54 E5.4085
G1 X114.864 Y138.602 E5.41597
G1 X113.93 Y138.923 E5.45878
G1 X113.764 Y138.972 E5.46626
G1 X112.801 Y139.215 E5.50931
G1 X112.622 Y139.252 E5.51725
G1 X111.558 Y139.424 E5.56392
G1 X111.42 Y139.441 E5.56997
G1 X110.878 Y139.492 E5.59354
G1 X110.758 Y139.499 E5.59874
G1 X109.903 Y139.529 E5.63583
G1 X109.732 Y139.528 E5.64323
G1 X108.663 Y139.478 E5.6896
G1 X108.523 Y139.467 E5.69567
G1 X107.982 Y139.404 E5.71927
G1 X107.863 Y139.387 E5.72449
G1 X107.02 Y139.241 E5.76157
G1 X106.854 Y139.205 E5.76892
G1 X105.796 Y138.931 E5.81626
G1 X105.62 Y138.877 E5.82424
G1 X104.704 Y138.551 E5.86636
G1 X104.584 Y138.504 E5.87197
G1 X104.089 Y138.292 E5.8953
G1 X103.978 Y138.241 E5.90056
G1 X103.213 Y137.86 E5.93761
G1 X103.066 Y137.779 E5.94489
G1 X102.131 Y137.215 E5.9922
G1 X101.977 Y137.112 E6.00021
G1 X101.173 Y136.525 E6.04335
G1 X101.038 Y136.417 E6.05083
G1 X100.292 Y135.77 E6.09364
G1 X100.166 Y135.651 E6.10112
G1 X99.476 Y134.945 E6.14393
G1 X99.36 Y134.816 E6.1514
G1 X98.731 Y134.055 E6.19421
G1 X98.626 Y133.918 E6.20168
G1 X98.062 Y133.107 E6.24449
G1 X97.969 Y132.961 E6.25197
G1 X97.48 Y132.117 E6.29425
G1 X97.409 Y131.985 E6.30074
G1 X97.398 Y131.962 E6.30184
G1 X97.291 Y131.928 E6.30671
G1 X96.869 Y131.774 E6.32617
G1 X96.601 Y131.654 E6.3389
G1 X96.107 Y131.39 E6.36315
G1 X95.935 Y131.287 E6.37184
G1 X95.752 Y131.165 E6.38138
G1 X95.598 Y131.051 E6.38967
G1 X95.196 Y130.727 E6.41204
G1 X95.065 Y130.612 E6.41958
G1 X94.924 Y130.477 E6.42807
G1 X94.803 Y130.351 E6.43562
G1 X94.471 Y129.976 E6.45732
G1 X94.279 Y129.723 E6.47108
G1 X93.967 Y129.239 E6.49603
G1 X93.865 Y129.061 E6.50491
G1 X93.763 Y128.862 E6.51461
G1 X93.682 Y128.685 E6.52303
G1 X93.465 Y128.143 E6.54832
G1 X93.372 Y127.851 E6.56163
G1 X93.246 Y127.317 E6.58538
G1 X93.196 Y127.001 E6.59925
G1 X93.14 Y126.306 E6.62946
G1 X93.133 Y126.148 E6.6363
G1 X93.129 Y125.029 E6.68478
G1 X93.136 Y124.851 E6.69253
G1 X93.216 Y123.862 E6.73553
G1 X93.24 Y123.678 E6.74353
G1 X93.423 Y122.61 E6.79051
G1 X93.457 Y122.448 E6.79767
G1 X93.668 Y121.622 E6.83459
G1 X93.701 Y121.506 E6.83984
G1 X93.863 Y120.997 E6.863
G1 X93.906 Y120.875 E6.86859
G1 X94.251 Y119.984 E6.90998
G1 X94.319 Y119.827 E6.91738
G1 X94.746 Y118.945 E6.95987
G1 X94.827 Y118.794 E6.96729
G1 X95.326 Y117.949 E7.00979
G1 X95.419 Y117.806 E7.01721
G1 X95.985 Y117.005 E7.05971
G1 X96.09 Y116.869 E7.06713
G1 X96.724 Y116.113 E7.10987
G1 X96.846 Y115.979 E7.11774
G1 X97.617 Y115.207 E7.16502
G1 X97.751 Y115.084 E7.17288
G1 X98.507 Y114.449 E7.21565
G1 X98.643 Y114.345 E7.22308
G1 X99.443 Y113.777 E7.26558
G1 X99.587 Y113.684 E7.273
G1 X100.431 Y113.185 E7.3155
G1 X100.581 Y113.103 E7.32292
G1 X101.443 Y112.685 E7.36443
G1 X101.56 Y112.632 E7.36999
G1 X102.055 Y112.429 E7.39316
G1 X102.168 Y112.386 E7.3984
G1 X102.949 Y112.116 E7.43419
G1 X103.065 Y112.08 E7.43945
G1 X103.44 Y111.974 E7.45636
G1 X103.213 Y111.861 E7.46735
G1 X103.066 Y111.78 E7.47462
G1 X102.131 Y111.216 E7.52194
G1 X101.977 Y111.113 E7.52995
G1 X101.173 Y110.526 E7.57308
G1 X101.038 Y110.418 E7.58056
G1 X100.292 Y109.771 E7.62338
G1 X100.166 Y109.652 E7.63085
G1 X99.476 Y108.946 E7.67366
G1 X99.36 Y108.817 E7.68113
G1 X98.731 Y108.056 E7.72395
G1 X98.626 Y107.919 E7.73142
