; generated by SuperSlicer 2.3.57 on 2022-09-08 at 21:09:07 UTC

; 

; external perimeters extrusion width = 0.42mm
; perimeters extrusion width = 0.46mm
; infill extrusion width = 0.44mm
; solid infill extrusion width = 0.46mm
; top infill extrusion width = 0.44mm
; first layer extrusion width = 0.56mm

; object:{"name":"nozzle_probe","id":"nozzle_probe.stl id:0 copy 0","object_center":[115.000000,112.500000,0.000000],"boundingbox_center":[115.000000,112.500000,8.500000],"boundingbox_size":[21.200012,29.000000,17.000000]}
; Total objects to print: 1
M486 T1
; plater:{"center":[115.000000,112.500000,0.000000],"boundingbox_center":[115.000000,112.500000,8.500000],"boundingbox_size":[21.200012,29.000000,17.000000]}

;TYPE:Custom
G90 ; use absolute coordinates
M83 ; extruder relative mode
M140 S110 ; set final bed temp
M104 S150 ; set temporary nozzle temp to prevent oozing during homing and auto bed leveling
M190 S110 ; wait for bed temp to stabilize
G4 S300
G4 S10 ; allow partial nozzle warmup

G28 ; home all axis
G29; ABL
G1 Z50 F240
G1 X2 Y10 F3000
M104 S245 ; set final nozzle temp
M190 S110 ; wait for bed temp to stabilize
M109 S245 ; wait for nozzle temp to stabilize
G1 Z0.28 F240
G92 E0
G1 Y140 E10 F1500 ; prime the nozzle
G1 X2.3 F5000
G92 E0
G1 Y10 E10 F1200 ; prime the nozzle
G92 E0
M107
G21 ; set units to millimeters
G90 ; use absolute coordinates
M82 ; use absolute distances for extrusion
G92 E0
; Filament gcode
M107
;LAYER_CHANGE
;Z:0.2
;HEIGHT:0.2
;BEFORE_LAYER_CHANGE
;0.2


G1 E-6 F3600
G1 Z0.2 F9000
;AFTER_LAYER_CHANGE
;0.2
G92 E0
M204 P500
G1 X39.139 Y36.04
G1 X78.277 Y72.081
G1 E6 F2400
;TYPE:Skirt
;WIDTH:0.48
G1 F1200
G1 X78.935 Y71.367 E6.03528
G1 X82.689 Y68.168 E6.21453
G1 X87.989 Y64.762 E6.44351
G1 X93.966 Y62.204 E6.67977
G1 X99.095 Y60.887 E6.87221
G1 X103.941 Y60.21 E7.05007
G1 X127.984 Y60.182 E7.92385
G1 X128.73 Y60.27 E7.95117
G1 X139.595 Y62.892 E8.35736
G1 X140.195 Y63.105 E8.38052
G1 X140.677 Y63.386 E8.40079
G1 X152.311 Y71.653 E8.91948
G1 X152.739 Y72.044 E8.94055
G1 X153.089 Y72.506 E8.96162
G1 X160.758 Y85.135 E9.49857
G1 X160.967 Y85.852 E9.52573
G1 X162.618 Y96.12 E9.9037
G1 X162.616 Y128.975 E11.09777
G1 X161.082 Y138.264 E11.43993
G1 X155.761 Y148.719 E11.86626
G1 X155.191 Y149.495 E11.90125
G1 X146.912 Y157.717 E12.32531
G1 X136.258 Y163.214 E12.76101
G1 X135.639 Y163.383 E12.78433
G1 X126.672 Y164.819 E13.11438
G1 X105.323 Y164.815 E13.89027
G1 X100.816 Y164.44 E14.05464
G1 X95.82 Y163.325 E14.24069
G1 X90.712 Y161.542 E14.4373
G1 X85.241 Y158.636 E14.66243
G1 X80.207 Y154.818 E14.89207
G1 X76.655 Y151.261 E15.07476
G1 X73.617 Y147.366 E15.25428
G1 X71.073 Y143.145 E15.43338
G1 X69.076 Y138.63 E15.61281
G1 X67.59 Y133.772 E15.79744
G1 X66.786 Y129.071 E15.97079
G1 X66.582 Y125.556 E16.09875
G1 X66.584 Y98.945 E17.06587
G1 X66.96 Y94.417 E17.231
G1 X68.075 Y89.421 E17.41705
G1 X69.947 Y84.128 E17.62108
G1 X72.609 Y79.146 E17.82637
G1 X75.578 Y75.012 E18.01137
G1 X78.237 Y72.125 E18.15399
G92 E0
G1 E-4.2 F3600
;WIPE_START
G1 F7200
G1 X78.935 Y71.367 E-4.68964
G1 X80.89 Y69.701 E-5.91
;WIPE_END
G1 E-6 F3600
G1 X79.545 Y73.329 F9000
G1 X80.854 Y74.533
G1 E0 F2400
;WIDTH:0.564
G1 F1200
G1 X82.893 Y72.64 E0.12056
G1 X85.431 Y70.639 E0.2606
G1 X87.784 Y69.079 E0.38291
G1 X90.213 Y67.741 E0.50311
G1 X92.066 Y66.86 E0.59198
G1 X94.274 Y65.967 E0.69517
G1 X96.379 Y65.27 E0.79124
G1 X98.72 Y64.659 E0.8961
G1 X100.645 Y64.272 E0.98117
G1 X103.063 Y63.928 E1.08697
G1 X105.483 Y63.757 E1.19208
G1 X125.903 Y63.753 E2.07684
G1 X129.953 Y64.234 E2.25357
G1 X135.145 Y65.487 E2.485
G1 X140.688 Y67.911 E2.74712
G1 X145.762 Y71.291 E3.01128
G1 X149.807 Y75.042 E3.25029
G1 X152.925 Y79.034 E3.46975
G1 X155.072 Y82.598 E3.65004
G1 X156.914 Y86.71 E3.84524
G1 X158.195 Y90.965 E4.03779
G1 X158.821 Y94.767 E4.20475
G1 X159.05 Y97.565 E4.32639
G1 X159.052 Y127.351 E5.61693
G1 X158.842 Y130.033 E5.73352
G1 X158.2 Y134.107 E5.91219
G1 X156.692 Y138.93 E6.13116
G1 X154.496 Y143.479 E6.35
G1 X151.999 Y147.277 E6.54693
G1 X149.051 Y150.681 E6.74206
G1 X146.052 Y153.415 E6.9179
G1 X142.33 Y156.081 E7.11625
G1 X138.192 Y158.264 E7.31897
G1 X133.833 Y159.854 E7.51999
G1 X129.834 Y160.792 E7.69799
G1 X126.667 Y161.146 E7.83605
G1 X124.759 Y161.252 E7.91886
G1 X106.208 Y161.252 E8.72264
G1 X104.83 Y161.197 E8.78236
G1 X102.629 Y161.02 E8.87804
G1 X100.354 Y160.683 E8.97768
G1 X97.997 Y160.171 E9.0822
G1 X96.048 Y159.626 E9.16988
G1 X93.527 Y158.758 E9.28538
G1 X91.097 Y157.707 E9.40011
G1 X88.349 Y156.257 E9.53475
G1 X85.986 Y154.753 E9.6561
G1 X83.656 Y152.988 E9.78277
G1 X81.932 Y151.493 E9.88161
G1 X80.183 Y149.76 E9.98831
G1 X78.757 Y148.159 E10.08122
G1 X77.26 Y146.251 E10.18628
G1 X76.094 Y144.568 E10.27497
G1 X74.866 Y142.549 E10.37738
G1 X73.852 Y140.614 E10.47203
G1 X72.867 Y138.404 E10.57688
G1 X72.161 Y136.536 E10.66338
G1 X71.456 Y134.281 E10.76575
G1 X70.928 Y132.11 E10.86258
G1 X70.51 Y129.724 E10.9675
G1 X70.284 Y127.789 E11.05194
G1 X70.179 Y126.057 E11.1271
G1 X70.148 Y125.026 E11.17183
G1 X70.148 Y99.808 E12.26446
G1 X70.203 Y98.43 E12.32419
G1 X70.38 Y96.23 E12.41985
G1 X70.717 Y93.956 E12.51945
G1 X71.229 Y91.598 E12.62397
G1 X71.774 Y89.648 E12.7117
G1 X72.642 Y87.127 E12.82722
G1 X73.693 Y84.697 E12.94194
G1 X75.024 Y82.174 E13.06553
G1 X76.228 Y80.221 E13.16495
G1 X77.65 Y78.223 E13.27122
G1 X78.978 Y76.582 E13.36266
G1 X80.813 Y74.578 E13.48042
G1 X81.005 Y74.754 F9000
G1 X81.198 Y74.93
G1 F1200
G1 X81.224 Y74.901 E13.48211
G1 X83.232 Y73.036 E13.60084
G1 X85.737 Y71.062 E13.73904
G1 X88.054 Y69.525 E13.8595
G1 X90.451 Y68.204 E13.9781
G1 X92.276 Y67.337 E14.06562
G1 X94.454 Y66.456 E14.16741
G1 X96.527 Y65.77 E14.26203
G1 X98.838 Y65.166 E14.36551
G1 X100.733 Y64.786 E14.44929
G1 X103.118 Y64.447 E14.55365
G1 X105.501 Y64.278 E14.65718
G1 X125.872 Y64.274 E15.53979
G1 X129.861 Y64.748 E15.71385
G1 X134.979 Y65.983 E15.94195
G1 X140.438 Y68.37 E16.2001
G1 X145.439 Y71.702 E16.46047
G1 X149.422 Y75.396 E16.69586
G1 X152.495 Y79.33 E16.91214
G1 X154.609 Y82.84 E17.0897
G1 X156.425 Y86.892 E17.28207
G1 X157.686 Y91.083 E17.47171
G1 X158.303 Y94.831 E17.63628
G1 X158.529 Y97.587 E17.75608
G1 X158.531 Y127.33 E19.04482
G1 X158.324 Y129.972 E19.15964
G1 X157.691 Y133.988 E19.33577
G1 X156.206 Y138.738 E19.55142
G1 X154.12 Y143.06 E19.75933
G1 X151.894 Y146.523 E19.93772
G1 X149.161 Y149.818 E20.12317
G1 X146.181 Y152.635 E20.30087
G1 X142.384 Y155.441 E20.50545
G1 X138.1 Y157.743 E20.71615
G1 X133.684 Y159.354 E20.91982
G1 X129.745 Y160.278 E21.09512
G1 X126.624 Y160.626 E21.23121
G1 X124.744 Y160.731 E21.31276
G1 X106.218 Y160.731 E22.11547
G1 X104.862 Y160.676 E22.17428
G1 X102.688 Y160.502 E22.26875
G1 X100.448 Y160.17 E22.36688
G1 X98.123 Y159.665 E22.46998
G1 X96.203 Y159.128 E22.55634
G1 X93.716 Y158.272 E22.6703
G1 X91.323 Y157.236 E22.78329
G1 X88.611 Y155.806 E22.91614
G1 X86.284 Y154.325 E23.03565
G1 X83.984 Y152.583 E23.16065
G1 X82.287 Y151.111 E23.258
G1 X80.561 Y149.401 E23.36325
G1 X79.157 Y147.824 E23.45475
G1 X77.679 Y145.942 E23.55843
G1 X76.531 Y144.284 E23.64578
G1 X75.32 Y142.292 E23.7468
G1 X74.321 Y140.387 E23.84002
G1 X73.349 Y138.205 E23.94349
G1 X72.654 Y136.366 E24.02868
G1 X71.958 Y134.142 E24.12966
G1 X71.438 Y132.003 E24.22502
G1 X71.026 Y129.649 E24.32857
G1 X70.803 Y127.743 E24.41173
G1 X70.7 Y126.034 E24.48591
G1 X70.67 Y125.018 E24.52997
G1 X70.669 Y99.818 E25.62181
G1 X70.724 Y98.462 E25.68063
G1 X70.898 Y96.289 E25.77508
G1 X71.23 Y94.049 E25.87318
G1 X71.735 Y91.724 E25.97627
G1 X72.272 Y89.803 E26.06268
G1 X73.128 Y87.316 E26.17666
G1 X74.164 Y84.923 E26.28965
G1 X75.477 Y82.433 E26.41161
G1 X76.662 Y80.509 E26.50953
G1 X78.066 Y78.538 E26.61435
G1 X79.373 Y76.922 E26.7044
G1 X81.157 Y74.974 E26.81887
G1 X81.349 Y75.15 F9000
G1 X81.541 Y75.326
G1 F1200
G1 X81.594 Y75.268 E26.82225
G1 X83.571 Y73.432 E26.93916
G1 X86.043 Y71.484 E27.07551
G1 X88.324 Y69.971 E27.19412
G1 X90.689 Y68.668 E27.31111
G1 X92.485 Y67.814 E27.39729
G1 X94.633 Y66.946 E27.49768
G1 X96.674 Y66.27 E27.59084
G1 X98.955 Y65.674 E27.69296
G1 X100.821 Y65.299 E27.77544
G1 X103.173 Y64.965 E27.87837
G1 X105.52 Y64.799 E27.9803
G1 X125.841 Y64.795 E28.86078
G1 X129.769 Y65.262 E29.03215
G1 X134.812 Y66.479 E29.25694
G1 X140.187 Y68.829 E29.51112
G1 X145.115 Y72.112 E29.76768
G1 X149.037 Y75.749 E29.99945
G1 X151.932 Y79.456 E30.20321
G1 X153.831 Y82.518 E30.35934
G1 X155.643 Y86.297 E30.54093
G1 X157.016 Y90.523 E30.73344
G1 X157.735 Y94.451 E30.90647
G1 X158.008 Y97.459 E31.03733
G1 X158.01 Y127.31 E32.33071
G1 X157.806 Y129.911 E32.44377
G1 X157.182 Y133.869 E32.61736
G1 X155.72 Y138.546 E32.82969
G1 X153.664 Y142.805 E33.03456
G1 X151.473 Y146.215 E33.21021
G1 X148.78 Y149.461 E33.39293
G1 X145.846 Y152.235 E33.56789
G1 X142.104 Y155. E33.76949
G1 X137.886 Y157.266 E33.97694
G1 X133.535 Y158.854 E34.17764
G1 X129.656 Y159.763 E34.35024
G1 X126.58 Y160.107 E34.48436
G1 X124.73 Y160.21 E34.56465
G1 X106.228 Y160.21 E35.36628
G1 X104.893 Y160.156 E35.42419
G1 X102.747 Y159.984 E35.51745
G1 X100.541 Y159.657 E35.61407
G1 X98.248 Y159.159 E35.71575
G1 X96.358 Y158.631 E35.80078
G1 X93.905 Y157.786 E35.91321
G1 X91.548 Y156.766 E36.02446
G1 X88.873 Y155.355 E36.15552
G1 X86.582 Y153.897 E36.2732
G1 X84.312 Y152.178 E36.39653
G1 X82.641 Y150.729 E36.49238
G1 X80.94 Y149.042 E36.59618
G1 X79.557 Y147.49 E36.68627
G1 X78.099 Y145.632 E36.78857
G1 X76.969 Y144. E36.87458
G1 X75.774 Y142.036 E36.97421
G1 X74.791 Y140.16 E37.06599
G1 X73.831 Y138.007 E37.1681
G1 X73.147 Y136.196 E37.25197
G1 X72.46 Y134.003 E37.35157
G1 X71.949 Y131.897 E37.44546
G1 X71.542 Y129.574 E37.54764
G1 X71.322 Y127.697 E37.62952
G1 X71.221 Y126.011 E37.70272
G1 X71.191 Y125.01 E37.74609
G1 X71.19 Y99.829 E38.83714
G1 X71.244 Y98.493 E38.89506
G1 X71.416 Y96.348 E38.98831
G1 X71.743 Y94.143 E39.08489
G1 X72.241 Y91.849 E39.18657
G1 X72.769 Y89.958 E39.27164
G1 X73.614 Y87.504 E39.3841
G1 X74.634 Y85.148 E39.49534
G1 X75.93 Y82.691 E39.61568
G1 X77.097 Y80.797 E39.7121
G1 X78.481 Y78.853 E39.81547
G1 X79.768 Y77.262 E39.90414
G1 X81.501 Y75.37 E40.01532
G1 X81.693 Y75.546 F9000
G1 X81.885 Y75.722
G1 F1200
G1 X81.964 Y75.636 E40.02037
G1 X83.91 Y73.828 E40.13546
G1 X86.348 Y71.906 E40.26998
G1 X88.594 Y70.417 E40.38673
G1 X90.927 Y69.132 E40.50212
G1 X92.695 Y68.291 E40.58695
G1 X94.813 Y67.435 E40.68594
G1 X96.822 Y66.77 E40.77765
G1 X99.072 Y66.182 E40.87839
G1 X100.909 Y65.813 E40.95959
G1 X103.228 Y65.484 E41.06107
G1 X105.538 Y65.32 E41.16141
G1 X125.81 Y65.316 E42.03975
G1 X129.677 Y65.776 E42.20845
G1 X134.645 Y66.975 E42.42991
G1 X139.936 Y69.288 E42.68012
G1 X144.791 Y72.523 E42.93289
G1 X148.652 Y76.103 E43.16103
G1 X151.504 Y79.754 E43.36176
G1 X153.373 Y82.769 E43.51545
G1 X155.158 Y86.491 E43.69432
G1 X156.509 Y90.651 E43.88382
G1 X157.218 Y94.522 E44.05433
G1 X157.487 Y97.483 E44.18314
G1 X157.489 Y127.29 E45.47462
G1 X157.288 Y129.85 E45.58591
G1 X156.673 Y133.75 E45.75695
G1 X155.234 Y138.354 E45.96597
G1 X153.209 Y142.55 E46.16781
G1 X151.052 Y145.907 E46.34071
G1 X148.4 Y149.104 E46.52069
G1 X145.511 Y151.835 E46.69292
G1 X141.825 Y154.559 E46.89153
G1 X137.673 Y156.79 E47.09574
G1 X133.422 Y158.34 E47.29176
G1 X129.683 Y159.227 E47.45827
G1 X126.667 Y159.578 E47.58986
G1 X124.768 Y159.688 E47.67227
G1 X106.24 Y159.689 E48.47505
G1 X104.925 Y159.636 E48.53208
G1 X102.807 Y159.466 E48.62414
G1 X100.635 Y159.144 E48.71926
G1 X98.374 Y158.653 E48.81952
G1 X96.513 Y158.133 E48.90322
G1 X94.093 Y157.3 E49.01412
G1 X91.774 Y156.296 E49.12363
G1 X89.135 Y154.904 E49.2529
G1 X86.879 Y153.469 E49.36873
G1 X84.641 Y151.773 E49.4904
G1 X82.996 Y150.346 E49.58475
G1 X81.318 Y148.684 E49.6871
G1 X79.957 Y147.155 E49.77578
G1 X78.519 Y145.323 E49.87671
G1 X77.406 Y143.716 E49.96137
G1 X76.228 Y141.779 E50.05961
G1 X75.26 Y139.932 E50.14996
G1 X74.313 Y137.809 E50.25069
G1 X73.64 Y136.026 E50.33326
G1 X72.963 Y133.863 E50.43146
G1 X72.459 Y131.79 E50.52389
G1 X72.058 Y129.498 E50.6247
G1 X71.841 Y127.651 E50.7053
G1 X71.741 Y125.987 E50.77752
G1 X71.712 Y125.002 E50.82022
G1 X71.711 Y99.839 E51.91047
G1 X71.764 Y98.524 E51.96749
G1 X71.934 Y96.407 E52.05952
G1 X72.256 Y94.236 E52.1546
G1 X72.747 Y91.975 E52.25486
G1 X73.267 Y90.114 E52.33861
G1 X74.1 Y87.693 E52.44952
G1 X75.104 Y85.373 E52.55903
G1 X76.382 Y82.95 E52.67775
G1 X77.531 Y81.085 E52.77266
G1 X78.896 Y79.169 E52.87459
G1 X80.163 Y77.603 E52.96187
G1 X81.845 Y75.766 E53.06975
G1 X82.037 Y75.942 F9000
G1 X82.229 Y76.118
G1 F1200
G1 X82.334 Y76.003 E53.0765
G1 X84.249 Y74.225 E53.18975
G1 X86.654 Y72.329 E53.32243
G1 X88.864 Y70.863 E53.43733
G1 X91.165 Y69.596 E53.55113
G1 X92.905 Y68.769 E53.63461
G1 X94.993 Y67.924 E53.7322
G1 X96.97 Y67.27 E53.82245
G1 X99.189 Y66.69 E53.92182
G1 X100.997 Y66.327 E54.00173
G1 X103.283 Y66.002 E54.10177
G1 X105.557 Y65.841 E54.20051
G1 X125.779 Y65.837 E55.07672
G1 X129.584 Y66.29 E55.24275
G1 X134.478 Y67.47 E55.46088
G1 X139.685 Y69.747 E55.70711
G1 X144.468 Y72.933 E55.95609
G1 X148.267 Y76.457 E56.18061
G1 X151.076 Y80.053 E56.37831
G1 X152.915 Y83.02 E56.52956
G1 X154.673 Y86.685 E56.70571
G1 X156.003 Y90.779 E56.8922
G1 X156.701 Y94.593 E57.06018
G1 X156.966 Y97.506 E57.18694
G1 X156.968 Y127.269 E58.47652
G1 X156.77 Y129.789 E58.58604
G1 X156.165 Y133.631 E58.75455
G1 X154.748 Y138.162 E58.96024
G1 X152.753 Y142.295 E59.15906
G1 X150.63 Y145.598 E59.32921
G1 X148.019 Y148.747 E59.50645
G1 X145.176 Y151.434 E59.67594
G1 X141.545 Y154.117 E59.87157
G1 X137.459 Y156.313 E60.07254
G1 X133.273 Y157.84 E60.26562
G1 X129.593 Y158.713 E60.42948
G1 X126.621 Y159.058 E60.55909
G1 X124.753 Y159.167 E60.6402
G1 X106.25 Y159.167 E61.44187
G1 X104.956 Y159.116 E61.498
G1 X102.866 Y158.948 E61.58885
G1 X100.729 Y158.631 E61.68246
G1 X98.499 Y158.147 E61.7813
G1 X96.668 Y157.635 E61.86367
G1 X94.282 Y156.814 E61.97303
G1 X91.999 Y155.826 E62.08081
G1 X89.397 Y154.453 E62.20829
G1 X87.177 Y153.04 E62.32229
G1 X84.969 Y151.368 E62.44229
G1 X83.35 Y149.964 E62.53514
G1 X81.696 Y148.325 E62.63603
G1 X80.356 Y146.821 E62.72331
G1 X78.938 Y145.013 E62.82286
G1 X77.843 Y143.432 E62.90618
G1 X76.682 Y141.523 E63.00303
G1 X75.729 Y139.705 E63.09195
G1 X74.795 Y137.61 E63.19131
G1 X74.132 Y135.856 E63.27256
G1 X73.465 Y133.724 E63.36938
G1 X72.97 Y131.684 E63.46034
G1 X72.574 Y129.423 E63.55977
G1 X72.361 Y127.605 E63.63909
G1 X72.262 Y125.964 E63.71033
G1 X72.233 Y124.994 E63.75235
G1 X72.233 Y99.85 E64.84182
G1 X72.284 Y98.556 E64.89793
G1 X72.452 Y96.466 E64.98876
G1 X72.768 Y94.33 E65.08232
G1 X73.252 Y92.1 E65.18116
G1 X73.765 Y90.269 E65.26358
G1 X74.586 Y87.881 E65.37297
G1 X75.574 Y85.599 E65.48074
G1 X76.835 Y83.208 E65.59783
G1 X77.966 Y81.373 E65.69123
G1 X79.311 Y79.484 E65.79171
G1 X80.558 Y77.943 E65.87761
G1 X82.188 Y76.162 E65.9822
G1 X82.38 Y76.338 F9000
G1 X82.573 Y76.514
G1 F1200
G1 X82.704 Y76.371 E65.99064
G1 X84.588 Y74.621 E66.10206
G1 X86.96 Y72.751 E66.2329
G1 X89.134 Y71.309 E66.34595
G1 X91.402 Y70.06 E66.45814
G1 X93.114 Y69.246 E66.54028
G1 X95.173 Y68.414 E66.63647
G1 X97.118 Y67.769 E66.72526
G1 X99.306 Y67.198 E66.82326
G1 X101.085 Y66.841 E66.90188
G1 X103.338 Y66.521 E67.00048
G1 X105.575 Y66.362 E67.09763
G1 X125.749 Y66.359 E67.97171
G1 X129.492 Y66.803 E68.13505
G1 X134.312 Y67.966 E68.34986
G1 X139.435 Y70.206 E68.59212
G1 X144.144 Y73.344 E68.8373
G1 X147.882 Y76.81 E69.0582
G1 X150.648 Y80.351 E69.25287
G1 X152.458 Y83.27 E69.40169
G1 X154.188 Y86.879 E69.57511
G1 X155.497 Y90.907 E69.75859
G1 X156.184 Y94.663 E69.92405
G1 X156.445 Y97.53 E70.04876
G1 X156.446 Y127.249 E71.33643
G1 X156.252 Y129.728 E71.44419
G1 X155.656 Y133.512 E71.61015
G1 X154.262 Y137.97 E71.81253
G1 X152.298 Y142.04 E72.00831
G1 X150.209 Y145.29 E72.17572
G1 X147.638 Y148.39 E72.35023
G1 X144.841 Y151.034 E72.51698
G1 X141.265 Y153.676 E72.70962
G1 X137.245 Y155.836 E72.90735
G1 X133.123 Y157.34 E73.09749
G1 X129.502 Y158.198 E73.25871
G1 X126.576 Y158.539 E73.38634
G1 X124.737 Y158.646 E73.46614
G1 X106.261 Y158.646 E74.26671
G1 X104.987 Y158.595 E74.32193
G1 X102.925 Y158.43 E74.41157
