; generated by SuperSlicer 2.3.57 on 2022-09-22 at 00:58:14 UTC

; 

; external perimeters extrusion width = 0.42mm
; perimeters extrusion width = 0.46mm
; infill extrusion width = 0.44mm
; solid infill extrusion width = 0.46mm
; top infill extrusion width = 0.44mm
; first layer extrusion width = 0.56mm

; object:{"name":"bottom_panel_template","id":"bottom_panel_template.stl id:0 copy 0","object_center":[146.837882,85.134802,0.000000],"boundingbox_center":[146.837882,85.134802,2.500000],"boundingbox_size":[77.201492,81.198135,5.000000]}
; object:{"name":"pulley_jig","id":"pulley_jig.stl id:1 copy 0","object_center":[146.533310,86.297108,0.000000],"boundingbox_center":[146.533310,86.297108,1.600000],"boundingbox_size":[47.000000,32.150002,3.200000]}
; object:{"name":"bed_hole_marking_template_x1_Rev2","id":"bed_hole_marking_template_x1_Rev2.STL id:2 copy 0","object_center":[109.241190,124.379587,0.000000],"boundingbox_center":[109.241190,124.379587,5.000000],"boundingbox_size":[127.621951,116.179848,10.000000]}
; Total objects to print: 3
M486 T3
; plater:{"center":[115.434421,113.502622,0.000000],"boundingbox_center":[115.434421,113.502622,5.000000],"boundingbox_size":[140.008414,137.933777,10.000000]}

;TYPE:Custom
G90 ; use absolute coordinates
M83 ; extruder relative mode
M140 S110 ; set final bed temp
M104 S150 ; set temporary nozzle temp to prevent oozing during homing and auto bed leveling
M190 S110 ; wait for bed temp to stabilize
G4 S300
G4 S10 ; allow partial nozzle warmup

G28 ; home all axis
G29; ABL
G1 Z50 F240
G1 X2 Y10 F3000
M104 S245 ; set final nozzle temp
M190 S110 ; wait for bed temp to stabilize
M109 S245 ; wait for nozzle temp to stabilize
G1 Z0.28 F240
G92 E0
G1 Y140 E10 F1500 ; prime the nozzle
G1 X2.3 F5000
G92 E0
G1 Y10 E10 F1200 ; prime the nozzle
G92 E0
M107
G21 ; set units to millimeters
G90 ; use absolute coordinates
M82 ; use absolute distances for extrusion
G92 E0
; Filament gcode
M107
;LAYER_CHANGE
;Z:0.2
;HEIGHT:0.2
;BEFORE_LAYER_CHANGE
;0.2


G1 E-6 F3600
G1 Z0.2 F9000
;AFTER_LAYER_CHANGE
;0.2
G92 E0
M204 P500
G1 X15.045 Y18.433
G1 X30.09 Y36.865
G1 E6 F2400
;TYPE:Skirt
;WIDTH:0.48
G1 F1200
G1 X35.912 Y33.063 E6.25273
G1 X42.443 Y30.287 E6.51064
G1 X126.611 Y8.412 E9.67121
G1 X131.752 Y7.467 E9.86118
G1 X136.948 Y6.899 E10.05115
G1 X141.78 Y6.717 E10.22686
G1 X151.86 Y6.717 E10.59321
G1 X156.69 Y6.897 E10.76889
G1 X159.342 Y7.137 E10.86566
G1 X161.981 Y7.476 E10.96233
G1 X166.994 Y8.397 E11.14758
G1 X169.499 Y8.998 E11.2412
G1 X172.165 Y9.742 E11.34179
G1 X174.625 Y10.529 E11.43569
G1 X179.273 Y12.294 E11.61636
G1 X181.751 Y13.389 E11.71483
G1 X184.949 Y14.977 E11.8446
G1 X188.572 Y17.016 E11.99568
G1 X190.802 Y18.418 E12.0914
G1 X192.971 Y19.895 E12.18679
G1 X195.833 Y22.031 E12.31656
G1 X199.027 Y24.691 E12.46764
G1 X200.949 Y26.453 E12.56239
G1 X203.486 Y28.988 E12.69274
G1 X205.279 Y30.943 E12.78917
G1 X207.943 Y34.141 E12.94041
G1 X210.079 Y37.003 E13.07021
G1 X211.574 Y39.2 E13.1668
G1 X213.745 Y42.747 E13.31794
G1 X215.447 Y45.885 E13.44768
G1 X216.585 Y48.223 E13.54217
G1 X218.244 Y52.101 E13.69548
G1 X219.446 Y55.353 E13.82146
G1 X220.247 Y57.859 E13.9171
G1 X220.976 Y60.475 E14.0158
G1 X221.575 Y62.97 E14.10904
G1 X222.352 Y67.103 E14.26189
G1 X222.834 Y70.608 E14.39046
G1 X223.071 Y73.197 E14.48494
G1 X223.257 Y78.096 E14.66311
G1 X223.217 Y94.385 E15.25511
G1 X223.069 Y97.098 E15.35388
G1 X222.512 Y102.184 E15.53982
G1 X210.183 Y180.32 E18.41466
G1 X208.182 Y187.019 E18.66877
G1 X205.031 Y193.285 E18.92366
G1 X201.872 Y197.533 E19.11605
G1 X192.338 Y208.203 E19.63608
G1 X188.518 Y211.793 E19.82662
G1 X182.613 Y215.674 E20.08343
G1 X176.458 Y218.326 E20.32701
G1 X169.222 Y220.036 E20.59721
G1 X162.449 Y220.402 E20.84374
G1 X155.324 Y219.522 E21.10466
G1 X148.662 Y217.467 E21.35801
G1 X142.692 Y214.44 E21.6013
G1 X138.37 Y211.217 E21.79723
G1 X19.633 Y105.044 E27.5861
G1 X16.006 Y101.161 E27.77923
G1 X12.189 Y95.31 E28.03312
G1 X9.472 Y88.956 E28.28427
G1 X7.864 Y81.99 E28.54409
G1 X7.497 Y75.226 E28.79028
G1 X8.323 Y68.314 E29.04325
G1 X10.333 Y61.656 E29.29603
G1 X13.417 Y55.532 E29.54523
G1 X16.676 Y51.146 E29.74384
G1 X26.219 Y40.479 E30.26397
G1 X30.046 Y36.906 E30.45425
G92 E0
G1 E-4.2 F3600
;WIPE_START
G1 F7200
G1 X33.057 Y34.933 E-5.91
;WIPE_END
G1 E-6 F3600
G1 X42.331 Y54.472 F9000
G1 X54.615 Y72.038
G1 E0 F2400
;WIDTH:0.564
G1 F1200
G1 X54.815 Y71.931 E0.00982
G1 X55.114 Y71.915 E0.02277
G1 X55.324 Y71.999 E0.0326
G1 X55.493 Y72.15 E0.04242
G1 X55.611 Y72.425 E0.05537
G1 X55.604 Y72.651 E0.06519
G1 X55.524 Y72.851 E0.07451
G1 X55.381 Y73.011 E0.08382
G1 X55.181 Y73.118 E0.09364
G1 X54.882 Y73.135 E0.10659
G1 X54.672 Y73.051 E0.11642
G1 X54.512 Y72.907 E0.12573
G1 X54.405 Y72.708 E0.13555
G1 X54.388 Y72.409 E0.1485
G1 X54.472 Y72.199 E0.15833
G1 X54.575 Y72.083 E0.16504
G1 X54.396 Y71.892 F9000
G1 X54.217 Y71.702
G1 F1200
G1 X54.294 Y71.63 E0.16959
G1 X54.46 Y71.521 E0.17819
G1 X54.642 Y71.443 E0.18679
G1 X54.836 Y71.398 E0.19539
G1 X55.034 Y71.386 E0.20399
G1 X55.231 Y71.41 E0.2126
G1 X55.421 Y71.467 E0.2212
G1 X55.598 Y71.557 E0.2298
G1 X55.757 Y71.676 E0.2384
G1 X55.893 Y71.82 E0.247
G1 X56.002 Y71.987 E0.2556
G1 X56.08 Y72.169 E0.2642
G1 X56.125 Y72.362 E0.2728
G1 X56.136 Y72.561 E0.28141
G1 X56.113 Y72.758 E0.29001
G1 X56.055 Y72.948 E0.29861
G1 X55.966 Y73.125 E0.30721
G1 X55.847 Y73.284 E0.31581
G1 X55.702 Y73.42 E0.32441
G1 X55.536 Y73.528 E0.33301
G1 X55.354 Y73.607 E0.34161
G1 X55.16 Y73.652 E0.35021
G1 X54.962 Y73.663 E0.35882
G1 X54.765 Y73.639 E0.36742
G1 X54.575 Y73.582 E0.37602
G1 X54.398 Y73.493 E0.38462
G1 X54.239 Y73.374 E0.39322
G1 X54.103 Y73.229 E0.40182
G1 X53.994 Y73.063 E0.41042
G1 X53.916 Y72.88 E0.41902
G1 X53.871 Y72.687 E0.42763
G1 X53.86 Y72.489 E0.43623
G1 X53.883 Y72.292 E0.44483
G1 X53.941 Y72.102 E0.45343
G1 X54.03 Y71.925 E0.46203
G1 X54.149 Y71.766 E0.47063
G1 X54.173 Y71.743 E0.47208
G92 E0
G1 E-4.2 F3600
;WIPE_START
G1 F7200
G1 X54.294 Y71.63 E-4.27841
G1 X54.46 Y71.521 E-4.37271
G1 X54.642 Y71.443 E-4.467
G1 X54.836 Y71.398 E-4.5613
G1 X55.034 Y71.386 E-4.65559
G1 X55.231 Y71.41 E-4.74988
G1 X55.421 Y71.467 E-4.84418
G1 X55.598 Y71.557 E-4.93848
G1 X55.757 Y71.676 E-5.03277
G1 X55.893 Y71.82 E-5.12706
G1 X56.002 Y71.987 E-5.22135
G1 X56.08 Y72.169 E-5.31565
G1 X56.125 Y72.362 E-5.40994
G1 X56.136 Y72.561 E-5.50424
G1 X56.113 Y72.758 E-5.59853
G1 X56.055 Y72.948 E-5.69283
G1 X55.966 Y73.125 E-5.78712
G1 X55.847 Y73.284 E-5.88141
G1 X55.803 Y73.325 E-5.91
;WIPE_END
G1 E-6 F3600
G1 X91.825 Y79.253 F9000
G1 X129.477 Y86.764
G1 E0 F2400
G1 F1200
G1 X129.477 Y86.486 E0.01203
G1 X129.217 Y86.191 F9000
G1 X128.956 Y85.896
G1 F1200
G1 X128.956 Y85.767 E0.0176
G1 X128.695 Y85.778 F9000
G1 X128.435 Y85.788
G1 F1200
G1 X128.435 Y85.667 E0.02288
G1 X128.174 Y85.86 F9000
G1 X127.914 Y86.052
G1 F1200
G1 X127.914 Y85.895 E0.02972
G92 E0
G1 E-4.2 F3600
;WIPE_START
G1 F7200
G1 X127.914 Y86.052 E-4.27494
;WIPE_END
G1 E-6 F3600
G1 X105.392 Y65.344 F9000
G1 X82.87 Y44.792
G1 E0 F2400
G1 F1200
G1 X83.932 Y42.988 E0.09073
G1 X84.239 Y42.486 E0.11623
G1 X85.046 Y41.216 E0.18141
G1 X85.36 Y40.74 E0.20612
G1 X86.412 Y39.2 E0.28694
G1 X86.824 Y38.623 E0.31765
G1 X88.129 Y36.871 E0.41231
G1 X88.5 Y36.392 E0.43853
G1 X89.443 Y35.216 E0.50385
G1 X89.8 Y34.785 E0.52812
G1 X90.982 Y33.404 E0.60687
G1 X91.397 Y32.938 E0.63392
G1 X92.677 Y31.549 E0.71576
G1 X93.162 Y31.043 E0.74611
G1 X94.738 Y29.468 E0.84266
G1 X95.243 Y28.983 E0.873
G1 X96.606 Y27.725 E0.95336
G1 X97.021 Y27.355 E0.97746
G1 X98.163 Y26.369 E1.04282
G1 X98.633 Y25.978 E1.06932
G1 X100.337 Y24.609 E1.16402
G1 X100.896 Y24.178 E1.19462
G1 X102.396 Y23.071 E1.27536
G1 X102.857 Y22.742 E1.29991
G1 X104.097 Y21.889 E1.36513
G1 X104.593 Y21.56 E1.3909
G1 X106.43 Y20.387 E1.48537
G1 X107.039 Y20.016 E1.51624
G1 X108.678 Y19.063 E1.59839
G1 X109.224 Y18.758 E1.62548
G1 X110.837 Y17.897 E1.70471
G1 X111.353 Y17.632 E1.72985
G1 X112.7 Y16.97 E1.79489
G1 X113.218 Y16.727 E1.81968
G1 X115.199 Y15.834 E1.91384
G1 X115.863 Y15.551 E1.94507
G1 X117.626 Y14.844 E2.02741
G1 X118.211 Y14.622 E2.0545
G1 X119.952 Y13.995 E2.1347
G1 X120.544 Y13.795 E2.16176
G1 X122.294 Y13.236 E2.24137
G1 X122.867 Y13.064 E2.26727
G1 X124.307 Y12.66 E2.33208
G1 X124.833 Y12.521 E2.35566
G1 X126.934 Y12.001 E2.44942
G1 X127.647 Y11.841 E2.48111
G1 X129.515 Y11.462 E2.56368
G1 X130.13 Y11.349 E2.59077
G1 X131.956 Y11.048 E2.67097
G1 X132.574 Y10.958 E2.69803
G1 X134.41 Y10.723 E2.77822
G1 X135.031 Y10.655 E2.80529
G1 X136.874 Y10.487 E2.88549
G1 X137.497 Y10.441 E2.91255
G1 X139.346 Y10.34 E2.99274
G1 X139.97 Y10.318 E3.01981
G1 X141.664 Y10.287 E3.09324
G1 X141.978 Y10.284 E3.10683
G1 X151.697 Y10.284 E3.52795
G1 X152.01 Y10.287 E3.54148
G1 X153.215 Y10.309 E3.59373
G1 X153.683 Y10.324 E3.61401
G1 X155.934 Y10.426 E3.71164
G1 X156.712 Y10.479 E3.74541
G1 X158.634 Y10.654 E3.82904
G1 X159.256 Y10.722 E3.85614
G1 X161.092 Y10.956 E3.93635
G1 X161.71 Y11.047 E3.96341
G1 X163.536 Y11.348 E4.0436
G1 X164.15 Y11.46 E4.07067
G1 X166.018 Y11.838 E4.15321
G1 X166.732 Y11.999 E4.18494
G1 X168.834 Y12.518 E4.27877
G1 X169.36 Y12.657 E4.30231
G1 X170.799 Y13.062 E4.3671
G1 X171.373 Y13.233 E4.39302
G1 X173.123 Y13.792 E4.47263
G1 X173.714 Y13.992 E4.49969
G1 X175.456 Y14.618 E4.57988
G1 X176.04 Y14.84 E4.60694
G1 X177.758 Y15.529 E4.68714
G1 X178.333 Y15.772 E4.7142
G1 X180.025 Y16.523 E4.79439
G1 X180.591 Y16.786 E4.82145
G1 X182.297 Y17.618 E4.90367
G1 X182.935 Y17.946 E4.93476
G1 X184.85 Y18.982 E5.02912
G1 X185.358 Y19.268 E5.05437
G1 X186.655 Y20.028 E5.1195
G1 X187.146 Y20.326 E5.14436
G1 X188.689 Y21.3 E5.22342
G1 X189.211 Y21.642 E5.25048
G1 X190.739 Y22.686 E5.33067
G1 X191.248 Y23.048 E5.35773
G1 X192.738 Y24.147 E5.43792
G1 X193.234 Y24.527 E5.46498
G1 X194.682 Y25.679 E5.54517
G1 X195.164 Y26.076 E5.57224
G1 X196.599 Y27.306 E5.65413
G1 X197.123 Y27.774 E5.68458
G1 X198.755 Y29.291 E5.78112
G1 X199.257 Y29.777 E5.81137
G1 X200.586 Y31.118 E5.89319
G1 X201.018 Y31.57 E5.92027
G1 X202.272 Y32.931 E6.00047
G1 X202.687 Y33.398 E6.02753
G1 X203.87 Y34.778 E6.1063
G1 X204.227 Y35.209 E6.13053
G1 X205.17 Y36.385 E6.19584
G1 X205.541 Y36.864 E6.22209
G1 X206.846 Y38.615 E6.31672
G1 X207.258 Y39.191 E6.34741
G1 X208.326 Y40.755 E6.42947
G1 X208.669 Y41.277 E6.45654
G1 X209.657 Y42.842 E6.53674
G1 X209.981 Y43.377 E6.56381
G1 X210.9 Y44.956 E6.64296
G1 X211.181 Y45.459 E6.66795
G1 X211.893 Y46.782 E6.73303
G1 X212.158 Y47.296 E6.75807
G1 X213.122 Y49.245 E6.8523
G1 X213.428 Y49.896 E6.88345
G1 X214.191 Y51.614 E6.96493
G1 X214.42 Y52.155 E6.99039
G1 X214.981 Y53.546 E7.05535
G1 X215.183 Y54.069 E7.07965
G1 X215.929 Y56.106 E7.17365
G1 X216.164 Y56.792 E7.20507
G1 X216.738 Y58.592 E7.28692
G1 X216.91 Y59.165 E7.31284
G1 X217.315 Y60.605 E7.37766
G1 X217.454 Y61.131 E7.40124
G1 X217.973 Y63.232 E7.495
G1 X218.134 Y63.946 E7.52669
G1 X218.51 Y65.805 E7.60891
G1 X218.621 Y66.404 E7.63529
G1 X218.865 Y67.877 E7.69998
G1 X218.943 Y68.398 E7.72282
G1 X219.231 Y70.538 E7.81635
G1 X219.314 Y71.271 E7.84832
G1 X219.487 Y73.169 E7.9309
G1 X219.532 Y73.787 E7.95774
G1 X219.614 Y75.275 E8.02229
G1 X219.635 Y75.785 E8.04441
G1 X219.685 Y77.781 E8.13096
G1 X219.69 Y78.215 E8.14974
G1 X219.69 Y91.99 E8.7466
G1 X219.688 Y92.302 E8.76012
G1 X219.657 Y93.993 E8.83341
G1 X219.634 Y94.617 E8.86043
G1 X219.53 Y96.523 E8.94314
G1 X219.474 Y97.262 E8.97524
G1 X219.264 Y99.41 E9.06876
G1 X219.205 Y99.927 E9.09133
G1 X219.016 Y101.406 E9.15593
G1 X218.927 Y102.012 E9.18246
G1 X218.627 Y103.832 E9.26237
G1 X218.514 Y104.446 E9.28944
G1 X218.136 Y106.313 E9.37198
G1 X217.975 Y107.028 E9.4037
G1 X217.456 Y109.13 E9.49753
G1 X217.317 Y109.655 E9.52108
G1 X216.913 Y111.095 E9.58587
G1 X216.741 Y111.668 E9.61179
G1 X216.167 Y113.467 E9.69361
G1 X215.932 Y114.154 E9.72506
G1 X215.186 Y116.192 E9.81911
G1 X214.985 Y116.715 E9.84339
G1 X214.424 Y118.105 E9.90832
G1 X214.195 Y118.646 E9.93379
G1 X213.432 Y120.364 E10.01523
G1 X213.127 Y121.016 E10.04641
G1 X212.162 Y122.966 E10.14069
G1 X211.897 Y123.479 E10.1657
G1 X211.186 Y124.802 E10.23078
G1 X210.904 Y125.306 E10.25579
G1 X209.964 Y126.924 E10.33686
G1 X209.593 Y127.533 E10.36776
G1 X208.419 Y129.371 E10.46227
G1 X208.091 Y129.866 E10.488
G1 X207.237 Y131.106 E10.55323
G1 X206.908 Y131.568 E10.57779
G1 X205.803 Y133.067 E10.65849
G1 X205.372 Y133.627 E10.68911
G1 X204.002 Y135.331 E10.78384
G1 X203.611 Y135.801 E10.81031
G1 X202.625 Y136.943 E10.87568
G1 X202.255 Y137.358 E10.89979
G1 X200.999 Y138.721 E10.98012
G1 X200.514 Y139.226 E11.01046
G1 X198.938 Y140.802 E11.107
G1 X198.433 Y141.287 E11.13734
G1 X197.044 Y142.568 E11.21921
G1 X196.577 Y142.983 E11.24629
G1 X195.171 Y144.187 E11.32648
G1 X194.689 Y144.585 E11.35355
G1 X194.577 Y144.674 E11.35977
G1 X195.767 Y145.738 E11.42892
G1 X196.822 Y146.766 E11.49276
G1 X198.544 Y148.594 E11.60154
G1 X200.361 Y150.885 E11.72828
G1 X202.179 Y153.626 E11.87076
G1 X203.614 Y156.264 E12.00089
G1 X204.944 Y159.315 E12.14506
G1 X205.899 Y162.161 E12.27517
G1 X206.678 Y165.396 E12.41934
G1 X207.125 Y168.366 E12.54946
G1 X207.331 Y171.687 E12.69364
G1 X207.255 Y174.69 E12.82378
G1 X206.881 Y177.996 E12.96795
G1 X206.285 Y180.939 E13.09804
G1 X205.343 Y184.13 E13.24219
G1 X204.245 Y186.925 E13.3723
G1 X202.763 Y189.904 E13.51648
G1 X201.195 Y192.466 E13.64663
G1 X199.634 Y194.58 E13.76047
G1 X198.621 Y195.825 E13.83001
G1 X190.254 Y205.183 E14.37392
G1 X189.226 Y206.239 E14.43777
G1 X187.398 Y207.961 E14.54658
G1 X185.106 Y209.779 E14.67334
G1 X182.365 Y211.596 E14.81583
G1 X179.727 Y213.032 E14.94596
G1 X176.677 Y214.361 E15.09012
G1 X173.83 Y215.316 E15.22021
G1 X170.595 Y216.096 E15.36438
G1 X167.625 Y216.542 E15.49453
G1 X164.304 Y216.748 E15.63871
G1 X161.302 Y216.672 E15.76881
G1 X157.996 Y216.298 E15.91298
G1 X155.052 Y215.702 E16.04311
G1 X151.861 Y214.76 E16.18727
G1 X149.067 Y213.662 E16.31736
G1 X146.088 Y212.18 E16.46152
G1 X143.526 Y210.613 E16.59165
G1 X141.412 Y209.052 E16.70551
G1 X140.166 Y208.038 E16.7751
G1 X22.716 Y103.021 E23.60157
G1 X21.661 Y101.993 E23.6654
G1 X19.939 Y100.165 E23.7742
G1 X18.12 Y97.873 E23.90098
G1 X16.303 Y95.132 E24.04346
G1 X14.868 Y92.495 E24.17354
G1 X13.539 Y89.445 E24.3177
G1 X12.583 Y86.598 E24.44783
G1 X11.804 Y83.363 E24.59201
G1 X11.357 Y80.393 E24.72211
G1 X11.151 Y77.072 E24.86628
G1 X11.227 Y74.07 E24.99642
G1 X11.601 Y70.763 E25.1406
G1 X12.198 Y67.819 E25.27074
G1 X13.14 Y64.628 E25.41491
G1 X14.238 Y61.833 E25.54502
G1 X15.72 Y58.855 E25.68915
G1 X17.286 Y56.294 E25.81922
G1 X18.847 Y54.181 E25.93304
G1 X19.861 Y52.935 E26.00264
G1 X28.228 Y43.576 E26.54659
G1 X29.257 Y42.519 E26.61049
G1 X31.085 Y40.797 E26.7193
G1 X33.377 Y38.98 E26.84602
G1 X36.117 Y37.163 E26.98848
G1 X38.754 Y35.728 E27.11857
G1 X41.805 Y34.398 E27.26274
G1 X44.653 Y33.443 E27.3929
G1 X47.939 Y32.651 E27.53937
G1 X51.014 Y32.198 E27.67404
G1 X54.412 Y32.008 E27.82147
G1 X57.414 Y32.103 E27.95161
G1 X60.643 Y32.488 E28.09251
G1 X63.48 Y33.072 E28.21803
G1 X66.621 Y33.999 E28.35992
G1 X69.417 Y35.098 E28.49006
G1 X72.396 Y36.58 E28.63423
G1 X74.957 Y38.146 E28.76432
G1 X77.07 Y39.707 E28.87815
G1 X78.316 Y40.721 E28.94775
G1 X82.825 Y44.753 E29.20982
G1 X82.652 Y44.947 F9000
G1 X82.478 Y45.141
G1 F1200
G1 X83.005 Y45.613 E29.24048
G1 X83.278 Y45.126 E29.26466
G1 X84.379 Y43.256 E29.35867
G1 X84.681 Y42.761 E29.38378
G1 X85.483 Y41.499 E29.44858
G1 X85.793 Y41.03 E29.47291
G1 X86.839 Y39.498 E29.55332
G1 X87.245 Y38.93 E29.58356
G1 X88.544 Y37.186 E29.67779
G1 X88.909 Y36.715 E29.70361
G1 X89.846 Y35.545 E29.76855
G1 X90.198 Y35.121 E29.79245
G1 X91.375 Y33.747 E29.87081
G1 X91.783 Y33.287 E29.89745
G1 X93.057 Y31.906 E29.97886
G1 X93.534 Y31.408 E30.00875
G1 X95.102 Y29.84 E30.10484
G1 X95.6 Y29.362 E30.13471
G1 X96.957 Y28.111 E30.21467
G1 X97.365 Y27.747 E30.2384
G1 X98.5 Y26.767 E30.30338
G1 X98.963 Y26.381 E30.32947
G1 X100.659 Y25.018 E30.42375
G1 X101.21 Y24.594 E30.45389
G1 X102.702 Y23.493 E30.5342
G1 X103.156 Y23.169 E30.55838
G1 X104.389 Y22.321 E30.62322
G1 X104.877 Y21.997 E30.6486
G1 X106.706 Y20.829 E30.74264
