; generated by SuperSlicer 2.3.57 on 2022-09-03 at 04:37:23 UTC

; 

; external perimeters extrusion width = 0.42mm
; perimeters extrusion width = 0.46mm
; infill extrusion width = 0.44mm
; solid infill extrusion width = 0.46mm
; top infill extrusion width = 0.44mm
; first layer extrusion width = 0.56mm

; object:{"name":"[a]_belt_tensioner_a_x2","id":"[a]_belt_tensioner_a_x2.stl id:0 copy 0","object_center":[115.000038,99.500664,0.000000],"boundingbox_center":[115.000038,99.500664,4.400005],"boundingbox_size":[35.700012,19.998672,8.800011]}
; object:{"name":"[a]_belt_tensioner_a_x2","id":"[a]_belt_tensioner_a_x2.stl id:0 copy 1","object_center":[115.000038,125.499437,0.000000],"boundingbox_center":[115.000038,125.499437,4.400005],"boundingbox_size":[35.700012,19.998672,8.800011]}
; Total objects to print: 2
M486 T2
; plater:{"center":[115.000038,112.500051,0.000000],"boundingbox_center":[115.000038,112.500051,4.400005],"boundingbox_size":[35.700012,45.997445,8.800011]}

;TYPE:Custom
G90 ; use absolute coordinates
M83 ; extruder relative mode
M140 S110 ; set final bed temp
M104 S150 ; set temporary nozzle temp to prevent oozing during homing and auto bed leveling

M190 S110 ; Wait for build temp to finish

G4 S10 ; allow partial nozzle warmup
G28 ; home all axis
G29; ABL
G1 Z50 F240
G1 X2 Y10 F3000

G4 P300000 ; Pause to let the chamber heat up

M104 S245 ; set final nozzle temp
M190 S110 ; wait for bed temp to stabilize
M109 S245 ; wait for nozzle temp to stabilize
G1 Z0.28 F240
G92 E0
G1 Y140 E10 F1500 ; prime the nozzle
G1 X2.3 F5000
G92 E0
G1 Y10 E10 F1200 ; prime the nozzle
G92 E0
M107
G21 ; set units to millimeters
G90 ; use absolute coordinates
M82 ; use absolute distances for extrusion
G92 E0
; Filament gcode
M107
;LAYER_CHANGE
;Z:0.2
;HEIGHT:0.2
;BEFORE_LAYER_CHANGE
;0.2


G1 E-6 F3600
G1 Z0.2 F9000
;AFTER_LAYER_CHANGE
;0.2
G92 E0
M204 P500
G1 X40.61 Y40.808
G1 X81.221 Y81.616
G1 E6 F2400
;TYPE:Skirt
;WIDTH:0.48
G1 F1200
G1 X87.735 Y75.253 E6.33094
G1 X89.399 Y73.828 E6.41057
G1 X91.62 Y72.206 E6.51052
G1 X93.83 Y70.853 E6.60469
G1 X95.143 Y70.157 E6.6587
G1 X97.557 Y69.066 E6.75496
G1 X100.023 Y68.185 E6.85017
G1 X101.513 Y67.755 E6.90651
G1 X104.13 Y67.18 E7.00389
G1 X106.763 Y66.823 E7.10046
G1 X109.51 Y66.679 E7.20042
G1 X112.042 Y66.753 E7.29249
G1 X114.833 Y67.058 E7.39452
G1 X116.747 Y67.413 E7.46527
G1 X119.175 Y68.03 E7.55633
G1 X121.879 Y68.964 E7.66027
G1 X124.188 Y69.975 E7.75189
G1 X126.541 Y71.24 E7.849
G1 X127.898 Y72.087 E7.90713
G1 X129.998 Y73.589 E8.00098
G1 X148.016 Y87.82 E8.8354
G1 X151.339 Y91.647 E9.01961
G1 X153.664 Y95.656 E9.18804
G1 X153.895 Y96.164 E9.20831
G1 X155.532 Y101.533 E9.41231
G1 X155.655 Y102.346 E9.44219
G1 X155.671 Y136.177 E10.67174
G1 X154.864 Y141.261 E10.85883
G1 X154.653 Y141.914 E10.88375
G1 X152.488 Y146.592 E11.07109
G1 X149.478 Y150.7 E11.25619
G1 X145.706 Y153.985 E11.43796
G1 X141.842 Y156.227 E11.60033
G1 X141.334 Y156.458 E11.6206
G1 X136.711 Y157.937 E11.79702
G1 X132.832 Y158.317 E11.93866
G1 X105.811 Y158.294 E12.9207
G1 X104.391 Y158.205 E12.9724
G1 X101.782 Y157.879 E13.06797
G1 X99.208 Y157.345 E13.16351
G1 X97.804 Y156.963 E13.21637
G1 X95.354 Y156.128 E13.31045
G1 X94.045 Y155.592 E13.36186
G1 X92.762 Y154.999 E13.41324
G1 X90.446 Y153.753 E13.50879
G1 X88.239 Y152.325 E13.60434
G1 X87.1 Y151.486 E13.65576
G1 X86.001 Y150.598 E13.70712
G1 X84.064 Y148.831 E13.8024
G1 X82.005 Y146.593 E13.9129
G1 X80.432 Y144.564 E14.00622
G1 X79.604 Y143.344 E14.05981
G1 X78.294 Y141.142 E14.15294
G1 X77.624 Y139.835 E14.2063
G1 X77.034 Y138.55 E14.2577
G1 X76.159 Y136.305 E14.34527
G1 X75.677 Y134.816 E14.40214
G1 X75.006 Y132.139 E14.50244
G1 X74.602 Y129.713 E14.59181
G1 X74.356 Y126.868 E14.6956
G1 X74.339 Y98.738 E15.71795
G1 X74.43 Y96.755 E15.79009
G1 X74.645 Y94.872 E15.85895
G1 X75.151 Y92.472 E15.94812
G1 X75.948 Y89.966 E16.04368
G1 X77.019 Y87.55 E16.13973
G1 X78.391 Y85.198 E16.2387
G1 X79.598 Y83.514 E16.31399
G1 X81.182 Y81.661 E16.40256
G92 E0
G1 E-4.2 F3600
;WIPE_START
G1 F7200
G1 X83.756 Y79.145 E-5.91
;WIPE_END
G1 E-6 F3600
G1 X82.517 Y82.947 F9000
G1 X83.852 Y84.233
G1 E0 F2400
;WIDTH:0.564
G1 F1200
G1 X84.386 Y83.679 E0.03332
G1 X85.523 Y82.643 E0.09999
G1 X86.581 Y81.808 E0.15838
G1 X86.838 Y81.632 E0.17187
G1 X87.153 Y81.219 E0.19437
G1 X87.64 Y80.631 E0.22745
G1 X88.662 Y79.493 E0.29374
G1 X89.125 Y79.011 E0.32269
G1 X89.937 Y78.223 E0.37171
G1 X90.355 Y77.842 E0.39622
G1 X91.395 Y76.945 E0.45574
G1 X91.99 Y76.471 E0.48868
G1 X93.276 Y75.529 E0.55774
G1 X93.937 Y75.085 E0.59228
G1 X95.313 Y74.242 E0.66217
G1 X96.009 Y73.853 E0.69673
G1 X97.45 Y73.127 E0.76663
G1 X98.176 Y72.797 E0.8012
G1 X99.607 Y72.218 E0.86805
G1 X100.225 Y71.992 E0.89659
G1 X101.304 Y71.64 E0.94577
G1 X101.863 Y71.475 E0.971
G1 X103.197 Y71.127 E1.03074
G1 X103.933 Y70.965 E1.06339
G1 X105.498 Y70.684 E1.13229
G1 X106.288 Y70.576 E1.16683
G1 X107.895 Y70.423 E1.23679
G1 X108.695 Y70.38 E1.27151
G1 X110.246 Y70.362 E1.33869
G1 X110.898 Y70.376 E1.36697
G1 X112.024 Y70.439 E1.41581
G1 X112.612 Y70.49 E1.4414
G1 X114.008 Y70.655 E1.5023
G1 X114.796 Y70.781 E1.53685
G1 X116.399 Y71.106 E1.60776
G1 X117.028 Y71.255 E1.63574
G1 X118.006 Y71.523 E1.67969
G1 X118.536 Y71.684 E1.70371
G1 X119.848 Y72.125 E1.76364
G1 X120.587 Y72.408 E1.79793
G1 X122.088 Y73.054 E1.86875
G1 X122.674 Y73.331 E1.89684
G1 X123.579 Y73.795 E1.9409
G1 X124.068 Y74.063 E1.96506
G1 X125.259 Y74.764 E2.02495
G1 X125.92 Y75.19 E2.05901
G1 X127.255 Y76.129 E2.12975
G1 X127.774 Y76.521 E2.15793
G1 X128.567 Y77.163 E2.20211
G1 X128.993 Y77.528 E2.22642
G1 X130.014 Y78.459 E2.28627
G1 X130.569 Y79.007 E2.32007
G1 X131.751 Y80.273 E2.39514
G1 X132.305 Y80.922 E2.43212
G1 X133.253 Y82.137 E2.4989
G1 X133.606 Y82.62 E2.52482
G1 X134.168 Y83.441 E2.56791
G1 X134.473 Y83.916 E2.59236
G1 X135.185 Y85.097 E2.6521
G1 X135.511 Y85.692 E2.68152
G1 X136.901 Y85.976 E2.74298
G1 X139.463 Y86.802 E2.85962
G1 X141.952 Y88.021 E2.97969
G1 X144.482 Y89.749 E3.11244
G1 X146.576 Y91.687 E3.23608
G1 X148.371 Y93.922 E3.36027
G1 X149.623 Y95.953 E3.46364
G1 X150.733 Y98.377 E3.57917
G1 X151.479 Y100.817 E3.68973
G1 X151.858 Y103.093 E3.78967
G1 X151.989 Y104.673 E3.85837
G1 X151.991 Y109.255 E4.05689
G1 X151.873 Y110.762 E4.1224
G1 X151.53 Y112.939 E4.21787
G1 X150.866 Y115.243 E4.32176
G1 X149.914 Y117.466 E4.42657
G1 X148.889 Y119.286 E4.51704
G1 X148.4 Y119.969 E4.55345
G1 X149.623 Y121.952 E4.65438
G1 X150.733 Y124.376 E4.76991
G1 X151.479 Y126.816 E4.88047
G1 X151.858 Y129.092 E4.98041
G1 X151.989 Y130.672 E5.04911
G1 X151.991 Y135.254 E5.24763
G1 X151.873 Y136.761 E5.31314
G1 X151.53 Y138.938 E5.40861
G1 X150.866 Y141.241 E5.5125
G1 X149.914 Y143.465 E5.61731
G1 X148.889 Y145.284 E5.70778
G1 X147.288 Y147.523 E5.82703
G1 X145.19 Y149.659 E5.95676
G1 X142.584 Y151.599 E6.09751
G1 X140.024 Y152.963 E6.22322
G1 X137.417 Y153.883 E6.34298
G1 X135.295 Y154.372 E6.43734
G1 X133.508 Y154.576 E6.51527
G1 X132.414 Y154.639 E6.56275
G1 X106.952 Y154.639 E7.66599
G1 X106.557 Y154.631 E7.68309
G1 X105.164 Y154.574 E7.74349
G1 X104.378 Y154.51 E7.77764
G1 X102.791 Y154.314 E7.84695
G1 X102.009 Y154.185 E7.88127
G1 X100.441 Y153.859 E7.95066
G1 X99.673 Y153.666 E7.98499
G1 X98.137 Y153.213 E8.05439
G1 X97.387 Y152.958 E8.08869
G1 X95.893 Y152.38 E8.15809
G1 X95.167 Y152.064 E8.1924
G1 X93.726 Y151.366 E8.2618
G1 X93.028 Y150.992 E8.29611
G1 X91.649 Y150.177 E8.3655
G1 X90.984 Y149.747 E8.39981
G1 X89.737 Y148.865 E8.46601
G1 X89.222 Y148.474 E8.494
G1 X88.346 Y147.762 E8.5429
G1 X87.899 Y147.376 E8.56851
G1 X86.944 Y146.497 E8.62474
G1 X86.521 Y146.082 E8.65042
G1 X85.755 Y145.286 E8.69827
G1 X85.355 Y144.842 E8.72419
G1 X84.515 Y143.852 E8.78041
G1 X84.151 Y143.395 E8.80576
G1 X83.489 Y142.511 E8.85361
G1 X83.141 Y142.015 E8.87986
G1 X82.43 Y140.929 E8.93608
G1 X82.128 Y140.437 E8.96111
G1 X81.57 Y139.461 E9.00983
G1 X81.264 Y138.883 E9.03814
G1 X80.605 Y137.525 E9.10354
G1 X80.303 Y136.836 E9.13614
G1 X79.803 Y135.563 E9.19542
G1 X79.611 Y135.029 E9.21997
G1 X79.263 Y133.962 E9.2686
G1 X79.08 Y133.328 E9.29723
G1 X78.71 Y131.858 E9.36292
G1 X78.553 Y131.116 E9.39576
G1 X78.325 Y129.77 E9.45488
G1 X78.248 Y129.222 E9.47887
G1 X78.124 Y128.11 E9.52737
G1 X78.073 Y127.443 E9.55633
G1 X78.011 Y125.948 E9.62118
G1 X78.008 Y125.237 E9.65197
G1 X78.066 Y123.442 E9.72977
G1 X78.184 Y122.219 E9.78302
G1 X78.494 Y120.296 E9.86743
G1 X79.001 Y118.398 E9.95253
G1 X79.83 Y116.22 E10.0535
G1 X80.671 Y114.527 E10.1354
G1 X81.463 Y113.261 E10.20013
G1 X81.264 Y112.884 E10.21859
G1 X80.605 Y111.527 E10.28399
G1 X80.303 Y110.838 E10.31659
G1 X79.803 Y109.564 E10.37588
G1 X79.611 Y109.031 E10.40042
G1 X79.263 Y107.964 E10.44905
G1 X79.08 Y107.329 E10.47768
G1 X78.71 Y105.859 E10.54337
G1 X78.553 Y105.117 E10.57621
G1 X78.325 Y103.772 E10.63534
G1 X78.248 Y103.223 E10.65932
G1 X78.124 Y102.111 E10.70783
G1 X78.073 Y101.444 E10.73678
G1 X78.011 Y99.949 E10.80163
G1 X78.008 Y99.238 E10.83242
G1 X78.066 Y97.444 E10.91022
G1 X78.184 Y96.22 E10.96347
G1 X78.494 Y94.297 E11.04789
G1 X79.001 Y92.4 E11.13298
G1 X79.83 Y90.222 E11.23395
G1 X80.671 Y88.529 E11.31586
G1 X81.703 Y86.879 E11.40019
G1 X82.507 Y85.777 E11.45928
G1 X83.504 Y84.594 E11.52633
G1 X83.81 Y84.276 E11.54544
G92 E0
G1 E-4.2 F3600
;WIPE_START
G1 F7200
G1 X84.386 Y83.679 E-4.59382
G1 X85.523 Y82.643 E-5.32463
G1 X86.49 Y81.879 E-5.91
;WIPE_END
G1 E-6 F3600
G1 X96.265 Y90.588 F9000
G1 X108.719 Y96.9
G1 E0 F2400
G1 F1200
G1 X110.243 Y96.882 E0.06605
G1 X110.878 Y96.896 E0.09356
G1 X110.968 Y96.901 E0.09746
G92 E0
G1 E-4.2 F3600
;WIPE_START
G1 F7200
G1 X110.878 Y96.896 E-4.24277
G1 X110.243 Y96.882 E-4.54443
G1 X108.719 Y96.9 E-5.26848
;WIPE_END
G1 E-6 F3600
G1 X116.065 Y85.062 F9000
G1 X121.162 Y73.223
G1 E0 F2400
G1 F1200
G1 X121.874 Y73.529 E0.03359
G1 X122.444 Y73.798 E0.06092
G1 X123.335 Y74.255 E0.10428
G1 X123.81 Y74.516 E0.12778
G1 X124.986 Y75.208 E0.18688
G1 X125.629 Y75.622 E0.22002
G1 X126.948 Y76.55 E0.28992
G1 X127.453 Y76.932 E0.31734
G1 X128.233 Y77.563 E0.36082
G1 X128.647 Y77.919 E0.38447
G1 X129.655 Y78.837 E0.44353
G1 X130.195 Y79.37 E0.47642
G1 X131.362 Y80.62 E0.55053
G1 X131.901 Y81.252 E0.58651
G1 X132.837 Y82.452 E0.65244
G1 X133.181 Y82.922 E0.67766
G1 X133.734 Y83.729 E0.72006
G1 X134.031 Y84.191 E0.74385
G1 X134.733 Y85.357 E0.80281
G1 X135.094 Y86.016 E0.83538
G1 X135.163 Y86.153 E0.84202
G1 X136.769 Y86.481 E0.91304
G1 X139.268 Y87.287 E1.02681
G1 X141.689 Y88.473 E1.14363
G1 X144.157 Y90.157 E1.27309
G1 X146.194 Y92.043 E1.39338
G1 X147.944 Y94.223 E1.5145
G1 X149.163 Y96.199 E1.61508
G1 X150.244 Y98.563 E1.72772
G1 X150.971 Y100.937 E1.83529
G1 X151.34 Y103.157 E1.93281
G1 X151.468 Y104.695 E1.99965
G1 X151.47 Y109.235 E2.19636
G1 X151.355 Y110.701 E2.2601
G1 X151.02 Y112.826 E2.35328
G1 X150.375 Y115.067 E2.45436
G1 X149.446 Y117.235 E2.55655
G1 X148.449 Y119.005 E2.64457
G1 X147.751 Y119.981 E2.69657
G1 X147.944 Y120.222 E2.70994
G1 X149.163 Y122.198 E2.81052
G1 X150.244 Y124.562 E2.92316
G1 X150.971 Y126.936 E3.03073
G1 X151.34 Y129.156 E3.12826
G1 X151.468 Y130.693 E3.1951
G1 X151.47 Y135.233 E3.3918
G1 X151.355 Y136.7 E3.45554
G1 X151.02 Y138.824 E3.54873
G1 X150.375 Y141.066 E3.6498
G1 X149.446 Y143.234 E3.75199
G1 X148.449 Y145.004 E3.84001
G1 X146.887 Y147.187 E3.95629
G1 X144.847 Y149.266 E4.08251
G1 X142.305 Y151.157 E4.21981
G1 X139.813 Y152.485 E4.34212
G1 X137.271 Y153.382 E4.45891
G1 X135.207 Y153.858 E4.55072
G1 X133.464 Y154.057 E4.62673
G1 X132.399 Y154.118 E4.67293
G1 X106.957 Y154.118 E5.77529
G1 X106.573 Y154.11 E5.79193
G1 X105.196 Y154.054 E5.85164
G1 X104.432 Y153.991 E5.88487
G1 X102.865 Y153.798 E5.95326
G1 X102.105 Y153.673 E5.98664
G1 X100.558 Y153.351 E6.05511
G1 X99.81 Y153.164 E6.08851
G1 X98.294 Y152.716 E6.15698
G1 X97.565 Y152.468 E6.19036
G1 X96.091 Y151.898 E6.25882
G1 X95.385 Y151.591 E6.29221
G1 X93.963 Y150.902 E6.36068
G1 X93.284 Y150.537 E6.39406
G1 X91.923 Y149.734 E6.46253
G1 X91.276 Y149.315 E6.49591
G1 X90.045 Y148.444 E6.56126
G1 X89.544 Y148.064 E6.5885
G1 X88.681 Y147.363 E6.63668
G1 X88.246 Y146.987 E6.6616
G1 X87.303 Y146.119 E6.71713
G1 X86.891 Y145.715 E6.74212
G1 X86.137 Y144.931 E6.78927
G1 X85.747 Y144.499 E6.81449
G1 X84.918 Y143.521 E6.87001
G1 X84.563 Y143.076 E6.89469
G1 X83.911 Y142.205 E6.94184
G1 X83.572 Y141.722 E6.96738
G1 X82.87 Y140.65 E7.0229
G1 X82.577 Y140.171 E7.04725
G1 X82.026 Y139.21 E7.09525
G1 X81.729 Y138.648 E7.1228
G1 X81.078 Y137.307 E7.18737
G1 X80.784 Y136.636 E7.21909
G1 X80.291 Y135.379 E7.27761
G1 X80.104 Y134.861 E7.30149
G1 X79.761 Y133.809 E7.3494
G1 X79.583 Y133.192 E7.37725
G1 X79.217 Y131.74 E7.44211
G1 X79.065 Y131.018 E7.47407
G1 X78.84 Y129.691 E7.53242
G1 X78.765 Y129.157 E7.55576
G1 X78.643 Y128.061 E7.60355
G1 X78.594 Y127.413 E7.63172
G1 X78.532 Y125.936 E7.69576
G1 X78.529 Y125.244 E7.72572
G1 X78.586 Y123.476 E7.80239
G1 X78.701 Y122.286 E7.8542
G1 X79.004 Y120.405 E7.93674
G1 X79.498 Y118.559 E8.01954
G1 X80.308 Y116.429 E8.11825
G1 X81.126 Y114.782 E8.19794
G1 X82.066 Y113.28 E8.2747
G1 X82.026 Y113.211 E8.27818
G1 X81.729 Y112.649 E8.30572
G1 X81.078 Y111.308 E8.3703
G1 X80.784 Y110.638 E8.40202
G1 X80.291 Y109.381 E8.46053
G1 X80.104 Y108.862 E8.48441
G1 X79.761 Y107.811 E8.53232
G1 X79.583 Y107.193 E8.56018
G1 X79.217 Y105.741 E8.62504
G1 X79.065 Y105.02 E8.65699
G1 X78.84 Y103.692 E8.71535
G1 X78.765 Y103.158 E8.73869
G1 X78.643 Y102.062 E8.78648
G1 X78.594 Y101.414 E8.81465
G1 X78.532 Y99.937 E8.87869
G1 X78.529 Y99.246 E8.90865
G1 X78.586 Y97.477 E8.98532
G1 X78.701 Y96.287 E9.03712
G1 X79.004 Y94.406 E9.11967
G1 X79.498 Y92.56 E9.20247
G1 X80.308 Y90.431 E9.30118
G1 X81.126 Y88.783 E9.38087
G1 X82.135 Y87.171 E9.4633
G1 X82.917 Y86.099 E9.52079
G1 X83.892 Y84.943 E9.5863
G1 X84.749 Y84.052 E9.63985
G1 X85.861 Y83.041 E9.70498
G1 X86.89 Y82.228 E9.76179
G1 X87.201 Y82.015 E9.77814
G1 X87.561 Y81.544 E9.80383
G1 X88.035 Y80.972 E9.83602
G1 X89.044 Y79.847 E9.90147
G1 X89.494 Y79.379 E9.92964
G1 X90.295 Y78.603 E9.97794
G1 X90.701 Y78.231 E10.00179
G1 X91.728 Y77.346 E10.06052
G1 X92.307 Y76.885 E10.09258
G1 X93.575 Y75.956 E10.16072
G1 X94.219 Y75.523 E10.19433
G1 X95.576 Y74.692 E10.26328
G1 X96.254 Y74.314 E10.29691
G1 X97.675 Y73.597 E10.36588
G1 X98.382 Y73.276 E10.39951
G1 X99.794 Y72.705 E10.46551
G1 X100.396 Y72.485 E10.49328
G1 X101.459 Y72.137 E10.54173
G1 X102.002 Y71.977 E10.56628
G1 X103.319 Y71.633 E10.62524
G1 X104.035 Y71.476 E10.65701
G1 X105.579 Y71.199 E10.725
G1 X106.348 Y71.093 E10.7586
G1 X107.934 Y70.942 E10.82763
G1 X108.712 Y70.901 E10.86141
G1 X110.243 Y70.883 E10.92774
G1 X110.878 Y70.897 E10.95525
G1 X111.987 Y70.959 E11.00337
G1 X112.559 Y71.009 E11.02827
G1 X113.936 Y71.171 E11.08835
G1 X114.703 Y71.293 E11.12197
G1 X116.287 Y71.615 E11.19203
G1 X116.899 Y71.76 E11.21926
G1 X117.861 Y72.023 E11.2625
G1 X118.377 Y72.18 E11.28587
G1 X119.671 Y72.616 E11.34502
G1 X120.39 Y72.891 E11.37838
G1 X121.107 Y73.199 E11.41217
G1 X121.004 Y73.438 F9000
G1 X120.901 Y73.678
G1 F1200
G1 X121.66 Y74.005 E11.44798
G1 X122.214 Y74.266 E11.47455
G1 X123.09 Y74.715 E11.5172
G1 X123.553 Y74.969 E11.54005
G1 X124.713 Y75.651 E11.59837
G1 X125.338 Y76.054 E11.63058
G1 X126.641 Y76.971 E11.69964
G1 X127.132 Y77.342 E11.7263
G1 X127.899 Y77.963 E11.76907
G1 X128.302 Y78.309 E11.79206
G1 X129.296 Y79.215 E11.85033
G1 X129.821 Y79.733 E11.88231
G1 X130.973 Y80.968 E11.95547
G1 X131.498 Y81.581 E11.99045
G1 X132.422 Y82.766 E12.05553
G1 X132.756 Y83.223 E12.08005
G1 X133.3 Y84.017 E12.12177
G1 X133.588 Y84.466 E12.1449
G1 X134.281 Y85.617 E12.20308
G1 X134.633 Y86.257 E12.23474
G1 X134.809 Y86.613 E12.25194
G1 X136.636 Y86.985 E12.33272
G1 X139.072 Y87.771 E12.44361
G1 X141.426 Y88.924 E12.55719
G1 X143.831 Y90.566 E12.68336
G1 X145.812 Y92.399 E12.80031
G1 X147.517 Y94.524 E12.91836
G1 X148.702 Y96.445 E13.01615
G1 X149.756 Y98.748 E13.12589
G1 X150.463 Y101.056 E13.23048
G1 X150.823 Y103.222 E13.32558
G1 X150.947 Y104.716 E13.39056
G1 X150.949 Y109.214 E13.58546
G1 X150.837 Y110.64 E13.64743
G1 X150.511 Y112.713 E13.73832
