; generated by SuperSlicer 2.3.57 on 2022-09-03 at 04:37:04 UTC

; 

; external perimeters extrusion width = 0.42mm
; perimeters extrusion width = 0.46mm
; infill extrusion width = 0.44mm
; solid infill extrusion width = 0.46mm
; top infill extrusion width = 0.44mm
; first layer extrusion width = 0.56mm

; object:{"name":"[a]_belt_tensioner_b_x2","id":"[a]_belt_tensioner_b_x2.stl id:0 copy 0","object_center":[115.000038,99.500563,0.000000],"boundingbox_center":[115.000038,99.500563,4.400005],"boundingbox_size":[35.700012,19.998672,8.800011]}
; object:{"name":"[a]_belt_tensioner_b_x2","id":"[a]_belt_tensioner_b_x2.stl id:0 copy 1","object_center":[115.000038,125.499336,0.000000],"boundingbox_center":[115.000038,125.499336,4.400005],"boundingbox_size":[35.700012,19.998672,8.800011]}
; Total objects to print: 2
M486 T2
; plater:{"center":[115.000038,112.499949,0.000000],"boundingbox_center":[115.000038,112.499949,4.400005],"boundingbox_size":[35.700012,45.997445,8.800011]}

;TYPE:Custom
G90 ; use absolute coordinates
M83 ; extruder relative mode
M140 S110 ; set final bed temp
M104 S150 ; set temporary nozzle temp to prevent oozing during homing and auto bed leveling

M190 S110 ; Wait for build temp to finish

G4 S10 ; allow partial nozzle warmup
G28 ; home all axis
G29; ABL
G1 Z50 F240
G1 X2 Y10 F3000

G4 P300000 ; Pause to let the chamber heat up

M104 S245 ; set final nozzle temp
M190 S110 ; wait for bed temp to stabilize
M109 S245 ; wait for nozzle temp to stabilize
G1 Z0.28 F240
G92 E0
G1 Y140 E10 F1500 ; prime the nozzle
G1 X2.3 F5000
G92 E0
G1 Y10 E10 F1200 ; prime the nozzle
G92 E0
M107
G21 ; set units to millimeters
G90 ; use absolute coordinates
M82 ; use absolute distances for extrusion
G92 E0
; Filament gcode
M107
;LAYER_CHANGE
;Z:0.2
;HEIGHT:0.2
;BEFORE_LAYER_CHANGE
;0.2


G1 E-6 F3600
G1 Z0.2 F9000
;AFTER_LAYER_CHANGE
;0.2
G92 E0
M204 P500
G1 X41.922 Y38.195
G1 X83.845 Y76.39
G1 E6 F2400
;TYPE:Skirt
;WIDTH:0.48
G1 F1200
G1 X83.874 Y76.358 E6.00157
G1 X86.092 Y74.325 E6.11093
G1 X88.131 Y72.751 E6.20453
G1 X89.293 Y71.961 E6.25561
G1 X90.501 Y71.215 E6.30718
G1 X92.766 Y69.999 E6.40062
G1 X95.346 Y68.875 E6.50293
G1 X97.665 Y68.081 E6.59201
G1 X100.458 Y67.368 E6.69675
G1 X103.112 Y66.928 E6.79454
G1 X105.749 Y66.709 E6.89071
G1 X133.484 Y66.684 E7.8987
G1 X138.308 Y67.45 E8.0762
G1 X143.031 Y69.323 E8.26086
G1 X143.662 Y69.672 E8.28706
G1 X147.74 Y72.593 E8.46935
G1 X148.234 Y73.043 E8.49363
G1 X151.349 Y76.663 E8.66722
G1 X153.664 Y80.657 E8.835
G1 X153.901 Y81.182 E8.85591
G1 X155.534 Y86.538 E9.05943
G1 X155.655 Y87.365 E9.08979
G1 X155.671 Y121.196 E10.31933
G1 X154.813 Y126.589 E10.5178
G1 X154.627 Y127.245 E10.54256
G1 X151.703 Y132.918 E10.77454
G1 X148.002 Y137.193 E10.98002
G1 X129.592 Y151.716 E11.83225
G1 X126.666 Y153.687 E11.96044
G1 X124.276 Y154.982 E12.05926
G1 X121.691 Y156.112 E12.16179
G1 X119.243 Y156.949 E12.25579
G1 X117.862 Y157.33 E12.30788
G1 X114.833 Y157.942 E12.42017
G1 X113.469 Y158.122 E12.47016
G1 X110.89 Y158.305 E12.56415
G1 X108.051 Y158.273 E12.66733
G1 X105.476 Y158.029 E12.76132
G1 X104.11 Y157.816 E12.81159
G1 X101.359 Y157.205 E12.91401
G1 X98.885 Y156.436 E13.00816
G1 X97.561 Y155.935 E13.0596
G1 X95.162 Y154.852 E13.15525
G1 X93.816 Y154.138 E13.21064
G1 X91.616 Y152.792 E13.30436
G1 X90.403 Y151.941 E13.3582
G1 X88.385 Y150.33 E13.45206
G1 X87.344 Y149.392 E13.503
G1 X81.547 Y143.693 E13.79841
G1 X79.877 Y141.862 E13.88848
G1 X78.269 Y139.617 E13.98887
G1 X77.122 Y137.641 E14.07188
G1 X76.169 Y135.571 E14.15472
G1 X75.311 Y133.121 E14.24906
G1 X74.667 Y130.313 E14.35374
G1 X74.431 Y128.251 E14.4292
G1 X74.339 Y126.293 E14.50043
G1 X74.353 Y98.197 E15.52152
G1 X74.576 Y95.472 E15.6209
G1 X75.017 Y92.808 E15.71903
G1 X75.675 Y90.194 E15.81699
G1 X76.559 Y87.606 E15.91639
G1 X77.084 Y86.336 E15.96632
G1 X78.203 Y84.031 E16.05946
G1 X79.608 Y81.648 E16.16
G1 X80.398 Y80.485 E16.21109
G1 X81.969 Y78.449 E16.30453
G1 X83.804 Y76.435 E16.4036
G92 E0
G1 E-4.2 F3600
;WIPE_START
G1 F7200
G1 X83.874 Y76.358 E-4.24901
G1 X86.092 Y74.325 E-5.67827
G1 X86.478 Y74.027 E-5.91
;WIPE_END
G1 E-6 F3600
G1 X85.109 Y77.738 F9000
G1 X86.414 Y79.042
G1 E0 F2400
;WIDTH:0.564
G1 F1200
G1 X87.159 Y78.296 E0.04566
G1 X87.778 Y77.728 E0.08205
G1 X89.023 Y76.682 E0.15253
G1 X89.651 Y76.197 E0.18688
G1 X90.958 Y75.271 E0.25629
G1 X91.622 Y74.84 E0.2906
G1 X93. Y74.024 E0.36
G1 X93.698 Y73.649 E0.39431
G1 X95.048 Y72.993 E0.45934
G1 X95.589 Y72.75 E0.48505
G1 X96.501 Y72.374 E0.5278
G1 X97.026 Y72.176 E0.55208
G1 X98.222 Y71.762 E0.60692
G1 X98.757 Y71.595 E0.63124
G1 X99.836 Y71.291 E0.67979
G1 X100.48 Y71.133 E0.7085
G1 X101.981 Y70.82 E0.77493
G1 X102.76 Y70.691 E0.80918
G1 X104.349 Y70.493 E0.87854
G1 X105.138 Y70.428 E0.91286
G1 X106.542 Y70.369 E0.97373
G1 X106.943 Y70.361 E0.99113
G1 X132.975 Y70.362 E2.11901
G1 X135.13 Y70.606 E2.21301
G1 X138.11 Y71.287 E2.34543
G1 X141.181 Y72.576 E2.48972
G1 X144.283 Y74.562 E2.64932
G1 X146.815 Y76.913 E2.79904
G1 X149.137 Y80.007 E2.96665
G1 X150.743 Y83.291 E3.12507
G1 X151.646 Y86.61 E3.27407
G1 X151.986 Y89.156 E3.38539
G1 X151.983 Y94.657 E3.62373
G1 X151.757 Y96.732 E3.71415
G1 X151.244 Y99.061 E3.8175
G1 X150.467 Y101.271 E3.919
G1 X149.344 Y103.542 E4.02875
G1 X148.39 Y105.01 E4.10461
G1 X149.137 Y106.006 E4.15855
G1 X150.743 Y109.29 E4.31696
G1 X151.646 Y112.608 E4.46596
G1 X151.986 Y115.155 E4.57728
G1 X151.983 Y120.656 E4.81562
G1 X151.757 Y122.73 E4.90604
G1 X151.244 Y125.06 E5.00939
G1 X150.467 Y127.27 E5.1109
G1 X149.344 Y129.54 E5.22064
G1 X148.119 Y131.427 E5.3181
G1 X146.546 Y133.322 E5.42481
G1 X144.85 Y134.926 E5.52594
G1 X142.606 Y136.585 E5.64688
G1 X140.167 Y137.895 E5.76684
G1 X137.575 Y138.84 E5.88638
G1 X135.498 Y139.333 E5.97885
G1 X135.291 Y139.716 E5.99773
G1 X134.465 Y141.102 E6.06763
G1 X134.029 Y141.77 E6.1022
G1 X133.091 Y143.083 E6.1721
G1 X132.601 Y143.712 E6.20666
G1 X131.559 Y144.943 E6.27655
G1 X131.018 Y145.53 E6.31112
G1 X129.858 Y146.691 E6.38225
G1 X129.228 Y147.267 E6.41923
G1 X127.897 Y148.381 E6.49443
G1 X127.275 Y148.86 E6.52843
G1 X126.145 Y149.659 E6.58838
G1 X125.682 Y149.966 E6.61247
G1 X124.842 Y150.491 E6.65538
G1 X124.323 Y150.792 E6.68139
G1 X122.995 Y151.51 E6.74679
G1 X122.28 Y151.859 E6.78126
G1 X120.804 Y152.506 E6.85111
G1 X120.061 Y152.796 E6.88566
G1 X118.534 Y153.319 E6.95556
G1 X117.77 Y153.546 E6.99013
G1 X116.181 Y153.947 E7.06112
G1 X115.352 Y154.119 E7.09781
G1 X113.711 Y154.383 E7.16984
G1 X113.069 Y154.464 E7.19787
G1 X112.058 Y154.558 E7.24184
G1 X111.504 Y154.594 E7.2659
G1 X110.122 Y154.642 E7.32583
G1 X109.331 Y154.637 E7.36008
G1 X107.699 Y154.561 E7.43088
G1 X107.053 Y154.508 E7.45899
G1 X106.042 Y154.392 E7.50307
G1 X105.489 Y154.313 E7.52726
G1 X104.128 Y154.076 E7.58714
G1 X103.361 Y153.91 E7.62114
G1 X101.682 Y153.475 E7.69627
G1 X100.868 Y153.225 E7.73316
G1 X99.417 Y152.709 E7.7999
G1 X98.859 Y152.491 E7.82584
G1 X97.946 Y152.1 E7.86887
G1 X97.436 Y151.865 E7.89321
G1 X96.202 Y151.249 E7.95299
G1 X95.521 Y150.875 E7.98664
G1 X94.038 Y149.981 E8.06166
G1 X93.327 Y149.507 E8.0987
G1 X92. Y148.537 E8.16991
G1 X91.375 Y148.039 E8.20451
G1 X90.156 Y146.982 E8.27443
G1 X89.576 Y146.435 E8.30899
G1 X88.448 Y145.281 E8.37889
G1 X87.915 Y144.688 E8.41346
G1 X86.887 Y143.445 E8.48336
G1 X86.851 Y143.398 E8.48591
G1 X86.828 Y143.383 E8.4871
G1 X85.234 Y142.112 E8.57543
G1 X84.065 Y141.009 E8.64506
G1 X82.833 Y139.634 E8.72506
G1 X81.904 Y138.417 E8.79141
G1 X80.835 Y136.757 E8.87691
G1 X80.011 Y135.173 E8.9543
G1 X79.259 Y133.329 E9.04058
G1 X78.807 Y131.918 E9.10478
G1 X78.41 Y130.249 E9.17912
G1 X78.179 Y128.786 E9.24328
G1 X78.054 Y127.228 E9.31103
G1 X78.023 Y126.498 E9.34265
G1 X78.016 Y124.769 E9.41756
G1 X78.048 Y123.943 E9.4534
G1 X78.183 Y122.297 E9.52494
G1 X78.29 Y121.45 E9.56193
G1 X78.581 Y119.757 E9.63639
G1 X78.74 Y119.009 E9.66952
G1 X79.078 Y117.68 E9.72894
G1 X79.232 Y117.141 E9.75321
G1 X79.531 Y116.2 E9.796
G1 X79.729 Y115.638 E9.82183
G1 X80.27 Y114.24 E9.88675
G1 X80.585 Y113.516 E9.92096
G1 X81.283 Y112.076 E9.9903
G1 X81.465 Y111.736 E10.00701
G1 X80.835 Y110.759 E10.05739
G1 X80.011 Y109.174 E10.13478
G1 X79.259 Y107.33 E10.22105
G1 X78.807 Y105.919 E10.28526
G1 X78.41 Y104.25 E10.3596
G1 X78.179 Y102.787 E10.42376
G1 X78.054 Y101.229 E10.4915
G1 X78.023 Y100.5 E10.52312
G1 X78.016 Y98.771 E10.59804
G1 X78.048 Y97.944 E10.63387
G1 X78.183 Y96.298 E10.70542
G1 X78.29 Y95.451 E10.74241
G1 X78.581 Y93.758 E10.81686
G1 X78.74 Y93.01 E10.85
G1 X79.078 Y91.681 E10.90941
G1 X79.232 Y91.142 E10.93368
G1 X79.531 Y90.201 E10.97648
G1 X79.729 Y89.639 E11.0023
G1 X80.27 Y88.241 E11.06723
G1 X80.585 Y87.517 E11.10144
G1 X81.283 Y86.077 E11.17078
G1 X81.657 Y85.379 E11.2051
G1 X82.472 Y84. E11.27449
G1 X82.902 Y83.335 E11.30882
G1 X83.827 Y82.027 E11.37821
G1 X84.31 Y81.4 E11.41253
G1 X85.355 Y80.154 E11.48298
G1 X85.922 Y79.534 E11.5194
G1 X86.372 Y79.084 E11.54696
G92 E0
G1 E-4.2 F3600
;WIPE_START
G1 F7200
G1 X87.159 Y78.296 E-4.72901
G1 X87.778 Y77.728 E-5.12795
G1 X89.023 Y76.682 E-5.90071
G1 X89.039 Y76.67 E-5.91
;WIPE_END
G1 E-6 F3600
G1 X97.569 Y87.982 F9000
G1 X108.766 Y96.881
G1 E0 F2400
G1 F1200
G1 X110.923 Y96.881 E0.09343
G92 E0
G1 E-4.2 F3600
;WIPE_START
G1 F7200
G1 X108.766 Y96.881 E-5.22431
;WIPE_END
G1 E-6 F3600
G1 X110.958 Y112.486 F9000
G1 X110.993 Y128.091
G1 E0 F2400
G1 F1200
G1 X110.114 Y128.122 E0.0381
G1 X109.345 Y128.117 E0.07142
G1 X108.682 Y128.086 E0.10018
G92 E0
G1 E-4.2 F3600
;WIPE_START
G1 F7200
G1 X109.345 Y128.117 E-4.51529
G1 X110.114 Y128.122 E-4.88059
G1 X110.993 Y128.091 E-5.29824
;WIPE_END
G1 E-6 F3600
G1 X102.935 Y139.622 F9000
G1 X97.187 Y151.158
G1 E0 F2400
G1 F1200
G1 X96.443 Y150.787 E0.03599
G1 X95.781 Y150.423 E0.06874
G1 X94.317 Y149.54 E0.1428
G1 X93.625 Y149.08 E0.17884
G1 X92.316 Y148.123 E0.24908
G1 X91.709 Y147.638 E0.28275
G1 X90.506 Y146.595 E0.35173
G1 X89.941 Y146.063 E0.38536
G1 X88.829 Y144.925 E0.45433
G1 X88.309 Y144.347 E0.48796
G1 X87.295 Y143.121 E0.55693
G1 X87.212 Y143.012 E0.56287
G1 X87.134 Y142.96 E0.56689
G1 X85.576 Y141.718 E0.65325
G1 X84.439 Y140.645 E0.72101
G1 X83.235 Y139.302 E0.79916
G1 X82.331 Y138.117 E0.86372
G1 X81.287 Y136.496 E0.94729
G1 X80.485 Y134.954 E1.02258
G1 X79.749 Y133.151 E1.10694
G1 X79.309 Y131.778 E1.16941
G1 X78.922 Y130.148 E1.24202
G1 X78.697 Y128.725 E1.30444
G1 X78.574 Y127.196 E1.37089
G1 X78.544 Y126.486 E1.40166
G1 X78.537 Y124.778 E1.47567
G1 X78.568 Y123.974 E1.51053
G1 X78.701 Y122.351 E1.58109
G1 X78.805 Y121.527 E1.61708
G1 X79.092 Y119.855 E1.69059
G1 X79.247 Y119.127 E1.72283
G1 X79.581 Y117.816 E1.78147
G1 X79.731 Y117.292 E1.80508
G1 X80.025 Y116.365 E1.8472
G1 X80.218 Y115.818 E1.87233
G1 X80.752 Y114.438 E1.93644
G1 X81.059 Y113.734 E1.96973
G1 X81.747 Y112.313 E2.03814
G1 X82.069 Y111.712 E2.06768
G1 X81.287 Y110.497 E2.13031
G1 X80.485 Y108.955 E2.20561
G1 X79.749 Y107.152 E2.28997
G1 X79.309 Y105.779 E2.35244
G1 X78.922 Y104.149 E2.42505
G1 X78.697 Y102.726 E2.48747
G1 X78.574 Y101.197 E2.55392
G1 X78.544 Y100.488 E2.58469
G1 X78.537 Y98.78 E2.6587
G1 X78.568 Y97.975 E2.69356
G1 X78.701 Y96.352 E2.76412
G1 X78.805 Y95.528 E2.80011
G1 X79.092 Y93.856 E2.87362
G1 X79.247 Y93.129 E2.90585
G1 X79.581 Y91.817 E2.9645
G1 X79.731 Y91.293 E2.98811
G1 X80.025 Y90.367 E3.03023
G1 X80.218 Y89.819 E3.05536
G1 X80.752 Y88.439 E3.11947
G1 X81.059 Y87.735 E3.15276
G1 X81.747 Y86.314 E3.22117
G1 X82.111 Y85.635 E3.25456
G1 X82.915 Y84.274 E3.32303
G1 X83.334 Y83.627 E3.35642
G1 X84.246 Y82.337 E3.42489
G1 X84.716 Y81.727 E3.45828
G1 X85.747 Y80.497 E3.52778
G1 X86.299 Y79.894 E3.56321
G1 X87.52 Y78.672 E3.63804
G1 X88.122 Y78.12 E3.67345
G1 X89.35 Y77.087 E3.74298
G1 X89.961 Y76.616 E3.77639
G1 X91.25 Y75.702 E3.84488
G1 X91.897 Y75.283 E3.87827
G1 X93.256 Y74.478 E3.94673
G1 X93.935 Y74.113 E3.98011
G1 X95.268 Y73.465 E4.04433
G1 X95.795 Y73.229 E4.06935
G1 X96.693 Y72.859 E4.11143
G1 X97.203 Y72.666 E4.13505
G1 X98.385 Y72.257 E4.18923
G1 X98.906 Y72.094 E4.2129
G1 X99.969 Y71.795 E4.26073
G1 X100.595 Y71.642 E4.28866
G1 X102.077 Y71.333 E4.35425
G1 X102.835 Y71.206 E4.38756
G1 X104.403 Y71.011 E4.456
G1 X105.171 Y70.948 E4.48939
G1 X106.558 Y70.89 E4.54957
G1 X106.949 Y70.882 E4.56649
G1 X132.945 Y70.883 E5.69287
G1 X135.043 Y71.12 E5.78433
G1 X137.95 Y71.785 E5.91353
G1 X140.938 Y73.039 E6.05392
G1 X143.963 Y74.975 E6.20954
G1 X146.427 Y77.263 E6.35522
G1 X148.691 Y80.28 E6.51867
G1 X150.253 Y83.476 E6.6728
G1 X151.134 Y86.713 E6.81815
G1 X151.465 Y89.191 E6.92647
G1 X151.462 Y94.629 E7.16208
G1 X151.242 Y96.647 E7.25005
G1 X150.742 Y98.918 E7.35082
G1 X149.986 Y101.069 E7.44958
G1 X148.89 Y103.283 E7.55663
G1 X147.755 Y105.031 E7.64695
G1 X148.691 Y106.279 E7.71452
G1 X150.253 Y109.475 E7.86865
G1 X151.134 Y112.712 E8.01401
G1 X151.465 Y115.19 E8.12233
G1 X151.462 Y120.627 E8.35793
G1 X151.242 Y122.646 E8.44591
G1 X150.742 Y124.917 E8.54667
G1 X149.986 Y127.067 E8.64543
G1 X148.89 Y129.282 E8.75249
G1 X147.698 Y131.117 E8.84731
G1 X146.165 Y132.965 E8.95134
G1 X144.515 Y134.525 E9.04973
G1 X142.326 Y136.143 E9.16768
G1 X139.953 Y137.419 E9.28441
G1 X137.425 Y138.34 E9.401
G1 X135.288 Y138.847 E9.49613
G1 X135.16 Y138.862 E9.50172
G1 X134.837 Y139.459 E9.53112
G1 X134.023 Y140.826 E9.60009
G1 X133.598 Y141.476 E9.63372
G1 X132.673 Y142.771 E9.70268
G1 X132.197 Y143.384 E9.73631
G1 X131.168 Y144.598 E9.80527
G1 X130.642 Y145.169 E9.8389
G1 X129.497 Y146.314 E9.90906
G1 X128.885 Y146.875 E9.94504
G1 X127.571 Y147.975 E10.01929
G1 X126.966 Y148.44 E10.05237
G1 X125.851 Y149.229 E10.11154
G1 X125.4 Y149.528 E10.13497
G1 X124.573 Y150.044 E10.17721
G1 X124.068 Y150.338 E10.20252
G1 X122.757 Y151.046 E10.2671
G1 X122.061 Y151.386 E10.30063
G1 X120.604 Y152.024 E10.36955
G1 X119.881 Y152.306 E10.40317
G1 X118.376 Y152.822 E10.47214
G1 X117.632 Y153.044 E10.50577
G1 X116.065 Y153.439 E10.57579
G1 X115.258 Y153.606 E10.6115
G1 X113.636 Y153.867 E10.68265
G1 X113.012 Y153.946 E10.70992
G1 X112.018 Y154.039 E10.75319
G1 X111.479 Y154.073 E10.7766
G1 X110.114 Y154.121 E10.83574
G1 X109.345 Y154.116 E10.86906
G1 X107.732 Y154.04 E10.93902
G1 X107.103 Y153.99 E10.96637
G1 X106.109 Y153.875 E11.00975
G1 X105.571 Y153.798 E11.03328
G1 X104.227 Y153.564 E11.09237
G1 X103.481 Y153.403 E11.12546
G1 X101.824 Y152.973 E11.19963
G1 X101.032 Y152.73 E11.23552
G1 X99.599 Y152.221 E11.30141
G1 X99.057 Y152.008 E11.32665
G1 X98.158 Y151.624 E11.369
G1 X97.662 Y151.395 E11.39268
G1 X97.24 Y151.185 E11.41309
G92 E0
G1 E-4.2 F3600
;WIPE_START
G1 F7200
G1 X96.443 Y150.787 E-4.62306
G1 X95.781 Y150.423 E-4.98207
G1 X94.317 Y149.54 E-5.79402
G1 X94.114 Y149.405 E-5.91
;WIPE_END
G1 E-6 F3600
G1 X102.558 Y139.356 F9000
G1 X107.875 Y127.527
G1 E0 F2400
G1 F1200
G1 X109.359 Y127.596 E0.06439
G1 X110.107 Y127.601 E0.09678
G1 X111.453 Y127.554 E0.15514
G1 X111.828 Y127.53 E0.17142
G92 E0
G1 E-4.2 F3600
;WIPE_START
G1 F7200
G1 X111.453 Y127.554 E-4.3785
G1 X110.107 Y127.601 E-5.01827
G1 X109.359 Y127.596 E-5.37342
G1 X108.231 Y127.543 E-5.91
;WIPE_END
G1 E-6 F3600
G1 X111.792 Y112.466 F9000
G1 X111.756 Y97.402
G1 E0 F2400
G1 F1200
G1 X107.955 Y97.402 E0.1647
G92 E0
G1 E-4.2 F3600
;WIPE_START
G1 F7200
G1 X111.555 Y97.402 E-5.91
;WIPE_END
G1 E-6 F3600
G1 X107.956 Y84.402 F9000
G1 X107.957 Y71.403
G1 E0 F2400
G1 F1200
G1 X132.916 Y71.405 E1.08143
G1 X134.955 Y71.635 E1.17035
G1 X137.79 Y72.283 E1.29634
G1 X140.695 Y73.502 E1.43283
G1 X143.642 Y75.389 E1.58447
G1 X146.038 Y77.613 E1.7261
G1 X148.245 Y80.553 E1.88539
G1 X149.764 Y83.66 E2.03524
G1 X150.622 Y86.816 E2.17695
G1 X150.944 Y89.225 E2.28226
G1 X150.941 Y94.6 E2.51514
G1 X150.727 Y96.563 E2.60067
G1 X150.24 Y98.775 E2.69884
G1 X149.505 Y100.866 E2.79486
G1 X148.437 Y103.025 E2.89922
G1 X147.278 Y104.809 E2.99141
G1 X147.099 Y105.025 E3.00357
G1 X148.245 Y106.552 E3.08628
G1 X149.764 Y109.659 E3.23613
G1 X150.622 Y112.815 E3.37784
G1 X150.944 Y115.224 E3.48315
G1 X150.941 Y120.599 E3.71603
G1 X150.727 Y122.561 E3.80156
G1 X150.24 Y124.774 E3.89973
G1 X149.505 Y126.865 E3.99575
G1 X148.437 Y129.024 E4.10011
